agents/video/luts/DLogM_to_Rec709.cube
# DJI D-Log M to Rec.709
LUT_3D_SIZE 9
DOMAIN_MIN 0.0 0.0 0.0
DOMAIN_MAX 1.0 1.0 1.0
0.000000 0.000000 0.000000
0.023975 0.000000 0.000000
0.453079 0.000000 0.000000
0.617341 0.000000 0.000000
0.827635 0.000000 0.000000
1.000000 0.000000 0.000000
1.000000 0.000000 0.000000
1.000000 0.000000 0.000000
1.000000 0.000000 0.000000
0.000000 0.023975 0.000000
0.023975 0.023975 0.000000
0.453079 0.023975 0.000000
0.617341 0.023975 0.000000
0.827635 0.023975 0.000000
1.000000 0.023975 0.000000
1.000000 0.023975 0.000000
1.000000 0.023975 0.000000
1.000000 0.023975 0.000000
0.000000 0.453079 0.000000
0.023975 0.453079 0.000000
0.453079 0.453079 0.000000
0.617341 0.453079 0.000000
0.827635 0.453079 0.000000
1.000000 0.453079 0.000000
1.000000 0.453079 0.000000
1.000000 0.453079 0.000000
1.000000 0.453079 0.000000
0.000000 0.617341 0.000000
0.023975 0.617341 0.000000
0.453079 0.617341 0.000000
0.617341 0.617341 0.000000
0.827635 0.617341 0.000000
1.000000 0.617341 0.000000
1.000000 0.617341 0.000000
1.000000 0.617341 0.000000
1.000000 0.617341 0.000000
0.000000 0.827635 0.000000
0.023975 0.827635 0.000000
0.453079 0.827635 0.000000
0.617341 0.827635 0.000000
0.827635 0.827635 0.000000
1.000000 0.827635 0.000000
1.000000 0.827635 0.000000
1.000000 0.827635 0.000000
1.000000 0.827635 0.000000
0.000000 1.000000 0.000000
0.023975 1.000000 0.000000
0.453079 1.000000 0.000000
0.617341 1.000000 0.000000
0.827635 1.000000 0.000000
1.000000 1.000000 0.000000
1.000000 1.000000 0.000000
1.000000 1.000000 0.000000
1.000000 1.000000 0.000000
0.000000 1.000000 0.000000
0.023975 1.000000 0.000000
0.453079 1.000000 0.000000
0.617341 1.000000 0.000000
0.827635 1.000000 0.000000
1.000000 1.000000 0.000000
1.000000 1.000000 0.000000
1.000000 1.000000 0.000000
1.000000 1.000000 0.000000
0.000000 1.000000 0.000000
0.023975 1.000000 0.000000
0.453079 1.000000 0.000000
0.617341 1.000000 0.000000
0.827635 1.000000 0.000000
1.000000 1.000000 0.000000
1.000000 1.000000 0.000000
1.000000 1.000000 0.000000
1.000000 1.000000 0.000000
0.000000 1.000000 0.000000
0.023975 1.000000 0.000000
0.453079 1.000000 0.000000
0.617341 1.000000 0.000000
0.827635 1.000000 0.000000
1.000000 1.000000 0.000000
1.000000 1.000000 0.000000
1.000000 1.000000 0.000000
1.000000 1.000000 0.000000
0.000000 0.000000 0.023975
0.023975 0.000000 0.023975
0.453079 0.000000 0.023975
0.617341 0.000000 0.023975
0.827635 0.000000 0.023975
1.000000 0.000000 0.023975
1.000000 0.000000 0.023975
1.000000 0.000000 0.023975
1.000000 0.000000 0.023975
0.000000 0.023975 0.023975
0.023975 0.023975 0.023975
0.453079 0.023975 0.023975
0.617341 0.023975 0.023975
0.827635 0.023975 0.023975
1.000000 0.023975 0.023975
1.000000 0.023975 0.023975
1.000000 0.023975 0.023975
1.000000 0.023975 0.023975
0.000000 0.453079 0.023975
0.023975 0.453079 0.023975
0.453079 0.453079 0.023975
0.617341 0.453079 0.023975
0.827635 0.453079 0.023975
1.000000 0.453079 0.023975
1.000000 0.453079 0.023975
1.000000 0.453079 0.023975
1.000000 0.453079 0.023975
0.000000 0.617341 0.023975
0.023975 0.617341 0.023975
0.453079 0.617341 0.023975
0.617341 0.617341 0.023975
0.827635 0.617341 0.023975
1.000000 0.617341 0.023975
1.000000 0.617341 0.023975
1.000000 0.617341 0.023975
1.000000 0.617341 0.023975
0.000000 0.827635 0.023975
0.023975 0.827635 0.023975
0.453079 0.827635 0.023975
0.617341 0.827635 0.023975
0.827635 0.827635 0.023975
1.000000 0.827635 0.023975
1.000000 0.827635 0.023975
1.000000 0.827635 0.023975
1.000000 0.827635 0.023975
0.000000 1.000000 0.023975
0.023975 1.000000 0.023975
0.453079 1.000000 0.023975
0.617341 1.000000 0.023975
0.827635 1.000000 0.023975
1.000000 1.000000 0.023975
1.000000 1.000000 0.023975
1.000000 1.000000 0.023975
1.000000 1.000000 0.023975
0.000000 1.000000 0.023975
0.023975 1.000000 0.023975
0.453079 1.000000 0.023975
0.617341 1.000000 0.023975
0.827635 1.000000 0.023975
1.000000 1.000000 0.023975
1.000000 1.000000 0.023975
1.000000 1.000000 0.023975
1.000000 1.000000 0.023975
0.000000 1.000000 0.023975
0.023975 1.000000 0.023975
0.453079 1.000000 0.023975
0.617341 1.000000 0.023975
0.827635 1.000000 0.023975
1.000000 1.000000 0.023975
1.000000 1.000000 0.023975
1.000000 1.000000 0.023975
1.000000 1.000000 0.023975
0.000000 1.000000 0.023975
0.023975 1.000000 0.023975
0.453079 1.000000 0.023975
0.617341 1.000000 0.023975
0.827635 1.000000 0.023975
1.000000 1.000000 0.023975
1.000000 1.000000 0.023975
1.000000 1.000000 0.023975
1.000000 1.000000 0.023975
0.000000 0.000000 0.453079
0.023975 0.000000 0.453079
0.453079 0.000000 0.453079
0.617341 0.000000 0.453079
0.827635 0.000000 0.453079
1.000000 0.000000 0.453079
1.000000 0.000000 0.453079
1.000000 0.000000 0.453079
1.000000 0.000000 0.453079
0.000000 0.023975 0.453079
0.023975 0.023975 0.453079
0.453079 0.023975 0.453079
0.617341 0.023975 0.453079
0.827635 0.023975 0.453079
1.000000 0.023975 0.453079
1.000000 0.023975 0.453079
1.000000 0.023975 0.453079
1.000000 0.023975 0.453079
0.000000 0.453079 0.453079
0.023975 0.453079 0.453079
0.453079 0.453079 0.453079
0.617341 0.453079 0.453079
0.827635 0.453079 0.453079
1.000000 0.453079 0.453079
1.000000 0.453079 0.453079
1.000000 0.453079 0.453079
1.000000 0.453079 0.453079
0.000000 0.617341 0.453079
0.023975 0.617341 0.453079
0.453079 0.617341 0.453079
0.617341 0.617341 0.453079
0.827635 0.617341 0.453079
1.000000 0.617341 0.453079
1.000000 0.617341 0.453079
1.000000 0.617341 0.453079
1.000000 0.617341 0.453079
0.000000 0.827635 0.453079
0.023975 0.827635 0.453079
0.453079 0.827635 0.453079
0.617341 0.827635 0.453079
0.827635 0.827635 0.453079
1.000000 0.827635 0.453079
1.000000 0.827635 0.453079
1.000000 0.827635 0.453079
1.000000 0.827635 0.453079
0.000000 1.000000 0.453079
0.023975 1.000000 0.453079
0.453079 1.000000 0.453079
0.617341 1.000000 0.453079
0.827635 1.000000 0.453079
1.000000 1.000000 0.453079
1.000000 1.000000 0.453079
1.000000 1.000000 0.453079
1.000000 1.000000 0.453079
0.000000 1.000000 0.453079
0.023975 1.000000 0.453079
0.453079 1.000000 0.453079
0.617341 1.000000 0.453079
0.827635 1.000000 0.453079
1.000000 1.000000 0.453079
1.000000 1.000000 0.453079
1.000000 1.000000 0.453079
1.000000 1.000000 0.453079
0.000000 1.000000 0.453079
0.023975 1.000000 0.453079
0.453079 1.000000 0.453079
0.617341 1.000000 0.453079
0.827635 1.000000 0.453079
1.000000 1.000000 0.453079
1.000000 1.000000 0.453079
1.000000 1.000000 0.453079
1.000000 1.000000 0.453079
0.000000 1.000000 0.453079
0.023975 1.000000 0.453079
0.453079 1.000000 0.453079
0.617341 1.000000 0.453079
0.827635 1.000000 0.453079
1.000000 1.000000 0.453079
1.000000 1.000000 0.453079
1.000000 1.000000 0.453079
1.000000 1.000000 0.453079
0.000000 0.000000 0.617341
0.023975 0.000000 0.617341
0.453079 0.000000 0.617341
0.617341 0.000000 0.617341
0.827635 0.000000 0.617341
1.000000 0.000000 0.617341
1.000000 0.000000 0.617341
1.000000 0.000000 0.617341
1.000000 0.000000 0.617341
0.000000 0.023975 0.617341
0.023975 0.023975 0.617341
0.453079 0.023975 0.617341
0.617341 0.023975 0.617341
0.827635 0.023975 0.617341
1.000000 0.023975 0.617341
1.000000 0.023975 0.617341
1.000000 0.023975 0.617341
1.000000 0.023975 0.617341
0.000000 0.453079 0.617341
0.023975 0.453079 0.617341
0.453079 0.453079 0.617341
0.617341 0.453079 0.617341
0.827635 0.453079 0.617341
1.000000 0.453079 0.617341
1.000000 0.453079 0.617341
1.000000 0.453079 0.617341
1.000000 0.453079 0.617341
0.000000 0.617341 0.617341
0.023975 0.617341 0.617341
0.453079 0.617341 0.617341
0.617341 0.617341 0.617341
0.827635 0.617341 0.617341
1.000000 0.617341 0.617341
1.000000 0.617341 0.617341
1.000000 0.617341 0.617341
1.000000 0.617341 0.617341
0.000000 0.827635 0.617341
0.023975 0.827635 0.617341
0.453079 0.827635 0.617341
0.617341 0.827635 0.617341
0.827635 0.827635 0.617341
1.000000 0.827635 0.617341
1.000000 0.827635 0.617341
1.000000 0.827635 0.617341
1.000000 0.827635 0.617341
0.000000 1.000000 0.617341
0.023975 1.000000 0.617341
0.453079 1.000000 0.617341
0.617341 1.000000 0.617341
0.827635 1.000000 0.617341
1.000000 1.000000 0.617341
1.000000 1.000000 0.617341
1.000000 1.000000 0.617341
1.000000 1.000000 0.617341
0.000000 1.000000 0.617341
0.023975 1.000000 0.617341
0.453079 1.000000 0.617341
0.617341 1.000000 0.617341
0.827635 1.000000 0.617341
1.000000 1.000000 0.617341
1.000000 1.000000 0.617341
1.000000 1.000000 0.617341
1.000000 1.000000 0.617341
0.000000 1.000000 0.617341
0.023975 1.000000 0.617341
0.453079 1.000000 0.617341
0.617341 1.000000 0.617341
0.827635 1.000000 0.617341
1.000000 1.000000 0.617341
1.000000 1.000000 0.617341
1.000000 1.000000 0.617341
1.000000 1.000000 0.617341
0.000000 1.000000 0.617341
0.023975 1.000000 0.617341
0.453079 1.000000 0.617341
0.617341 1.000000 0.617341
0.827635 1.000000 0.617341
1.000000 1.000000 0.617341
1.000000 1.000000 0.617341
1.000000 1.000000 0.617341
1.000000 1.000000 0.617341
0.000000 0.000000 0.827635
0.023975 0.000000 0.827635
0.453079 0.000000 0.827635
0.617341 0.000000 0.827635
0.827635 0.000000 0.827635
1.000000 0.000000 0.827635
1.000000 0.000000 0.827635
1.000000 0.000000 0.827635
1.000000 0.000000 0.827635
0.000000 0.023975 0.827635
0.023975 0.023975 0.827635
0.453079 0.023975 0.827635
0.617341 0.023975 0.827635
0.827635 0.023975 0.827635
1.000000 0.023975 0.827635
1.000000 0.023975 0.827635
1.000000 0.023975 0.827635
1.000000 0.023975 0.827635
0.000000 0.453079 0.827635
0.023975 0.453079 0.827635
0.453079 0.453079 0.827635
0.617341 0.453079 0.827635
0.827635 0.453079 0.827635
1.000000 0.453079 0.827635
1.000000 0.453079 0.827635
1.000000 0.453079 0.827635
1.000000 0.453079 0.827635
0.000000 0.617341 0.827635
0.023975 0.617341 0.827635
0.453079 0.617341 0.827635
0.617341 0.617341 0.827635
0.827635 0.617341 0.827635
1.000000 0.617341 0.827635
1.000000 0.617341 0.827635
1.000000 0.617341 0.827635
1.000000 0.617341 0.827635
0.000000 0.827635 0.827635
0.023975 0.827635 0.827635
0.453079 0.827635 0.827635
0.617341 0.827635 0.827635
0.827635 0.827635 0.827635
1.000000 0.827635 0.827635
1.000000 0.827635 0.827635
1.000000 0.827635 0.827635
1.000000 0.827635 0.827635
0.000000 1.000000 0.827635
0.023975 1.000000 0.827635
0.453079 1.000000 0.827635
0.617341 1.000000 0.827635
0.827635 1.000000 0.827635
1.000000 1.000000 0.827635
1.000000 1.000000 0.827635
1.000000 1.000000 0.827635
1.000000 1.000000 0.827635
0.000000 1.000000 0.827635
0.023975 1.000000 0.827635
0.453079 1.000000 0.827635
0.617341 1.000000 0.827635
0.827635 1.000000 0.827635
1.000000 1.000000 0.827635
1.000000 1.000000 0.827635
1.000000 1.000000 0.827635
1.000000 1.000000 0.827635
0.000000 1.000000 0.827635
0.023975 1.000000 0.827635
0.453079 1.000000 0.827635
0.617341 1.000000 0.827635
0.827635 1.000000 0.827635
1.000000 1.000000 0.827635
1.000000 1.000000 0.827635
1.000000 1.000000 0.827635
1.000000 1.000000 0.827635
0.000000 1.000000 0.827635
0.023975 1.000000 0.827635
0.453079 1.000000 0.827635
0.617341 1.000000 0.827635
0.827635 1.000000 0.827635
1.000000 1.000000 0.827635
1.000000 1.000000 0.827635
1.000000 1.000000 0.827635
1.000000 1.000000 0.827635
0.000000 0.000000 1.000000
0.023975 0.000000 1.000000
0.453079 0.000000 1.000000
0.617341 0.000000 1.000000
0.827635 0.000000 1.000000
1.000000 0.000000 1.000000
1.000000 0.000000 1.000000
1.000000 0.000000 1.000000
1.000000 0.000000 1.000000
0.000000 0.023975 1.000000
0.023975 0.023975 1.000000
0.453079 0.023975 1.000000
0.617341 0.023975 1.000000
0.827635 0.023975 1.000000
1.000000 0.023975 1.000000
1.000000 0.023975 1.000000
1.000000 0.023975 1.000000
1.000000 0.023975 1.000000
0.000000 0.453079 1.000000
0.023975 0.453079 1.000000
0.453079 0.453079 1.000000
0.617341 0.453079 1.000000
0.827635 0.453079 1.000000
1.000000 0.453079 1.000000
1.000000 0.453079 1.000000
1.000000 0.453079 1.000000
1.000000 0.453079 1.000000
0.000000 0.617341 1.000000
0.023975 0.617341 1.000000
0.453079 0.617341 1.000000
0.617341 0.617341 1.000000
0.827635 0.617341 1.000000
1.000000 0.617341 1.000000
1.000000 0.617341 1.000000
1.000000 0.617341 1.000000
1.000000 0.617341 1.000000
0.000000 0.827635 1.000000
0.023975 0.827635 1.000000
0.453079 0.827635 1.000000
0.617341 0.827635 1.000000
0.827635 0.827635 1.000000
1.000000 0.827635 1.000000
1.000000 0.827635 1.000000
1.000000 0.827635 1.000000
1.000000 0.827635 1.000000
0.000000 1.000000 1.000000
0.023975 1.000000 1.000000
0.453079 1.000000 1.000000
0.617341 1.000000 1.000000
0.827635 1.000000 1.000000
1.000000 1.000000 1.000000
1.000000 1.000000 1.000000
1.000000 1.000000 1.000000
1.000000 1.000000 1.000000
0.000000 1.000000 1.000000
0.023975 1.000000 1.000000
0.453079 1.000000 1.000000
0.617341 1.000000 1.000000
0.827635 1.000000 1.000000
1.000000 1.000000 1.000000
1.000000 1.000000 1.000000
1.000000 1.000000 1.000000
1.000000 1.000000 1.000000
0.000000 1.000000 1.000000
0.023975 1.000000 1.000000
0.453079 1.000000 1.000000
0.617341 1.000000 1.000000
0.827635 1.000000 1.000000
1.000000 1.000000 1.000000
1.000000 1.000000 1.000000
1.000000 1.000000 1.000000
1.000000 1.000000 1.000000
0.000000 1.000000 1.000000
0.023975 1.000000 1.000000
0.453079 1.000000 1.000000
0.617341 1.000000 1.000000
0.827635 1.000000 1.000000
1.000000 1.000000 1.000000
1.000000 1.000000 1.000000
1.000000 1.000000 1.000000
1.000000 1.000000 1.000000
0.000000 0.000000 1.000000
0.023975 0.000000 1.000000
0.453079 0.000000 1.000000
0.617341 0.000000 1.000000
0.827635 0.000000 1.000000
1.000000 0.000000 1.000000
1.000000 0.000000 1.000000
1.000000 0.000000 1.000000
1.000000 0.000000 1.000000
0.000000 0.023975 1.000000
0.023975 0.023975 1.000000
0.453079 0.023975 1.000000
0.617341 0.023975 1.000000
0.827635 0.023975 1.000000
1.000000 0.023975 1.000000
1.000000 0.023975 1.000000
1.000000 0.023975 1.000000
1.000000 0.023975 1.000000
0.000000 0.453079 1.000000
0.023975 0.453079 1.000000
0.453079 0.453079 1.000000
0.617341 0.453079 1.000000
0.827635 0.453079 1.000000
1.000000 0.453079 1.000000
1.000000 0.453079 1.000000
1.000000 0.453079 1.000000
1.000000 0.453079 1.000000
0.000000 0.617341 1.000000
0.023975 0.617341 1.000000
0.453079 0.617341 1.000000
0.617341 0.617341 1.000000
0.827635 0.617341 1.000000
1.000000 0.617341 1.000000
1.000000 0.617341 1.000000
1.000000 0.617341 1.000000
1.000000 0.617341 1.000000
0.000000 0.827635 1.000000
0.023975 0.827635 1.000000
0.453079 0.827635 1.000000
0.617341 0.827635 1.000000
0.827635 0.827635 1.000000
1.000000 0.827635 1.000000
1.000000 0.827635 1.000000
1.000000 0.827635 1.000000
1.000000 0.827635 1.000000
0.000000 1.000000 1.000000
0.023975 1.000000 1.000000
0.453079 1.000000 1.000000
0.617341 1.000000 1.000000
0.827635 1.000000 1.000000
1.000000 1.000000 1.000000
1.000000 1.000000 1.000000
1.000000 1.000000 1.000000
1.000000 1.000000 1.000000
0.000000 1.000000 1.000000
0.023975 1.000000 1.000000
0.453079 1.000000 1.000000
0.617341 1.000000 1.000000
0.827635 1.000000 1.000000
1.000000 1.000000 1.000000
1.000000 1.000000 1.000000
1.000000 1.000000 1.000000
1.000000 1.000000 1.000000
0.000000 1.000000 1.000000
0.023975 1.000000 1.000000
0.453079 1.000000 1.000000
0.617341 1.000000 1.000000
0.827635 1.000000 1.000000
1.000000 1.000000 1.000000
1.000000 1.000000 1.000000
1.000000 1.000000 1.000000
1.000000 1.000000 1.000000
0.000000 1.000000 1.000000
0.023975 1.000000 1.000000
0.453079 1.000000 1.000000
0.617341 1.000000 1.000000
0.827635 1.000000 1.000000
1.000000 1.000000 1.000000
1.000000 1.000000 1.000000
1.000000 1.000000 1.000000
1.000000 1.000000 1.000000
0.000000 0.000000 1.000000
0.023975 0.000000 1.000000
0.453079 0.000000 1.000000
0.617341 0.000000 1.000000
0.827635 0.000000 1.000000
1.000000 0.000000 1.000000
1.000000 0.000000 1.000000
1.000000 0.000000 1.000000
1.000000 0.000000 1.000000
0.000000 0.023975 1.000000
0.023975 0.023975 1.000000
0.453079 0.023975 1.000000
0.617341 0.023975 1.000000
0.827635 0.023975 1.000000
1.000000 0.023975 1.000000
1.000000 0.023975 1.000000
1.000000 0.023975 1.000000
1.000000 0.023975 1.000000
0.000000 0.453079 1.000000
0.023975 0.453079 1.000000
0.453079 0.453079 1.000000
0.617341 0.453079 1.000000
0.827635 0.453079 1.000000
1.000000 0.453079 1.000000
1.000000 0.453079 1.000000
1.000000 0.453079 1.000000
1.000000 0.453079 1.000000
0.000000 0.617341 1.000000
0.023975 0.617341 1.000000
0.453079 0.617341 1.000000
0.617341 0.617341 1.000000
0.827635 0.617341 1.000000
1.000000 0.617341 1.000000
1.000000 0.617341 1.000000
1.000000 0.617341 1.000000
1.000000 0.617341 1.000000
0.000000 0.827635 1.000000
0.023975 0.827635 1.000000
0.453079 0.827635 1.000000
0.617341 0.827635 1.000000
0.827635 0.827635 1.000000
1.000000 0.827635 1.000000
1.000000 0.827635 1.000000
1.000000 0.827635 1.000000
1.000000 0.827635 1.000000
0.000000 1.000000 1.000000
0.023975 1.000000 1.000000
0.453079 1.000000 1.000000
0.617341 1.000000 1.000000
0.827635 1.000000 1.000000
1.000000 1.000000 1.000000
1.000000 1.000000 1.000000
1.000000 1.000000 1.000000
1.000000 1.000000 1.000000
0.000000 1.000000 1.000000
0.023975 1.000000 1.000000
0.453079 1.000000 1.000000
0.617341 1.000000 1.000000
0.827635 1.000000 1.000000
1.000000 1.000000 1.000000
1.000000 1.000000 1.000000
1.000000 1.000000 1.000000
1.000000 1.000000 1.000000
0.000000 1.000000 1.000000
0.023975 1.000000 1.000000
0.453079 1.000000 1.000000
0.617341 1.000000 1.000000
0.827635 1.000000 1.000000
1.000000 1.000000 1.000000
1.000000 1.000000 1.000000
1.000000 1.000000 1.000000
1.000000 1.000000 1.000000
0.000000 1.000000 1.000000
0.023975 1.000000 1.000000
0.453079 1.000000 1.000000
0.617341 1.000000 1.000000
0.827635 1.000000 1.000000
1.000000 1.000000 1.000000
1.000000 1.000000 1.000000
1.000000 1.000000 1.000000
1.000000 1.000000 1.000000
0.000000 0.000000 1.000000
0.023975 0.000000 1.000000
0.453079 0.000000 1.000000
0.617341 0.000000 1.000000
0.827635 0.000000 1.000000
1.000000 0.000000 1.000000
1.000000 0.000000 1.000000
1.000000 0.000000 1.000000
1.000000 0.000000 1.000000
0.000000 0.023975 1.000000
0.023975 0.023975 1.000000
0.453079 0.023975 1.000000
0.617341 0.023975 1.000000
0.827635 0.023975 1.000000
1.000000 0.023975 1.000000
1.000000 0.023975 1.000000
1.000000 0.023975 1.000000
1.000000 0.023975 1.000000
0.000000 0.453079 1.000000
0.023975 0.453079 1.000000
0.453079 0.453079 1.000000
0.617341 0.453079 1.000000
0.827635 0.453079 1.000000
1.000000 0.453079 1.000000
1.000000 0.453079 1.000000
1.000000 0.453079 1.000000
1.000000 0.453079 1.000000
0.000000 0.617341 1.000000
0.023975 0.617341 1.000000
0.453079 0.617341 1.000000
0.617341 0.617341 1.000000
0.827635 0.617341 1.000000
1.000000 0.617341 1.000000
1.000000 0.617341 1.000000
1.000000 0.617341 1.000000
1.000000 0.617341 1.000000
0.000000 0.827635 1.000000
0.023975 0.827635 1.000000
0.453079 0.827635 1.000000
0.617341 0.827635 1.000000
0.827635 0.827635 1.000000
1.000000 0.827635 1.000000
1.000000 0.827635 1.000000
1.000000 0.827635 1.000000
1.000000 0.827635 1.000000
0.000000 1.000000 1.000000
0.023975 1.000000 1.000000
0.453079 1.000000 1.000000
0.617341 1.000000 1.000000
0.827635 1.000000 1.000000
1.000000 1.000000 1.000000
1.000000 1.000000 1.000000
1.000000 1.000000 1.000000
1.000000 1.000000 1.000000
0.000000 1.000000 1.000000
0.023975 1.000000 1.000000
0.453079 1.000000 1.000000
0.617341 1.000000 1.000000
0.827635 1.000000 1.000000
1.000000 1.000000 1.000000
1.000000 1.000000 1.000000
1.000000 1.000000 1.000000
1.000000 1.000000 1.000000
0.000000 1.000000 1.000000
0.023975 1.000000 1.000000
0.453079 1.000000 1.000000
0.617341 1.000000 1.000000
0.827635 1.000000 1.000000
1.000000 1.000000 1.000000
1.000000 1.000000 1.000000
1.000000 1.000000 1.000000
1.000000 1.000000 1.000000
0.000000 1.000000 1.000000
0.023975 1.000000 1.000000
0.453079 1.000000 1.000000
0.617341 1.000000 1.000000
0.827635 1.000000 1.000000
1.000000 1.000000 1.000000
1.000000 1.000000 1.000000
1.000000 1.000000 1.000000
1.000000 1.000000 1.000000
