agents/video/luts/DLogM_to_Rec709.cube
# DJI D-Log M to Rec.709
LUT_3D_SIZE 33
DOMAIN_MIN 0.0 0.0 0.0
DOMAIN_MAX 1.0 1.0 1.0
0.000000 0.000000 0.000000
0.000000 0.000000 0.000000
0.000000 0.000000 0.000000
0.000635 0.000000 0.000000
0.023975 0.000000 0.000000
0.353549 0.000000 0.000000
0.384764 0.000000 0.000000
0.417895 0.000000 0.000000
0.453079 0.000000 0.000000
0.490458 0.000000 0.000000
0.530186 0.000000 0.000000
0.572423 0.000000 0.000000
0.617341 0.000000 0.000000
0.665122 0.000000 0.000000
0.715959 0.000000 0.000000
0.770057 0.000000 0.000000
0.827635 0.000000 0.000000
0.888925 0.000000 0.000000
0.954173 0.000000 0.000000
1.000000 0.000000 0.000000
1.000000 0.000000 0.000000
1.000000 0.000000 0.000000
1.000000 0.000000 0.000000
1.000000 0.000000 0.000000
1.000000 0.000000 0.000000
1.000000 0.000000 0.000000
1.000000 0.000000 0.000000
1.000000 0.000000 0.000000
1.000000 0.000000 0.000000
1.000000 0.000000 0.000000
1.000000 0.000000 0.000000
1.000000 0.000000 0.000000
1.000000 0.000000 0.000000
0.000000 0.000000 0.000000
0.000000 0.000000 0.000000
0.000000 0.000000 0.000000
0.000635 0.000000 0.000000
0.023975 0.000000 0.000000
0.353549 0.000000 0.000000
0.384764 0.000000 0.000000
0.417895 0.000000 0.000000
0.453079 0.000000 0.000000
0.490458 0.000000 0.000000
0.530186 0.000000 0.000000
0.572423 0.000000 0.000000
0.617341 0.000000 0.000000
0.665122 0.000000 0.000000
0.715959 0.000000 0.000000
0.770057 0.000000 0.000000
0.827635 0.000000 0.000000
0.888925 0.000000 0.000000
0.954173 0.000000 0.000000
1.000000 0.000000 0.000000
1.000000 0.000000 0.000000
1.000000 0.000000 0.000000
1.000000 0.000000 0.000000
1.000000 0.000000 0.000000
1.000000 0.000000 0.000000
1.000000 0.000000 0.000000
1.000000 0.000000 0.000000
1.000000 0.000000 0.000000
1.000000 0.000000 0.000000
1.000000 0.000000 0.000000
1.000000 0.000000 0.000000
1.000000 0.000000 0.000000
1.000000 0.000000 0.000000
0.000000 0.000000 0.000000
0.000000 0.000000 0.000000
0.000000 0.000000 0.000000
0.000635 0.000000 0.000000
0.023975 0.000000 0.000000
0.353549 0.000000 0.000000
0.384764 0.000000 0.000000
0.417895 0.000000 0.000000
0.453079 0.000000 0.000000
0.490458 0.000000 0.000000
0.530186 0.000000 0.000000
0.572423 0.000000 0.000000
0.617341 0.000000 0.000000
0.665122 0.000000 0.000000
0.715959 0.000000 0.000000
0.770057 0.000000 0.000000
0.827635 0.000000 0.000000
0.888925 0.000000 0.000000
0.954173 0.000000 0.000000
1.000000 0.000000 0.000000
1.000000 0.000000 0.000000
1.000000 0.000000 0.000000
1.000000 0.000000 0.000000
1.000000 0.000000 0.000000
1.000000 0.000000 0.000000
1.000000 0.000000 0.000000
1.000000 0.000000 0.000000
1.000000 0.000000 0.000000
1.000000 0.000000 0.000000
1.000000 0.000000 0.000000
1.000000 0.000000 0.000000
1.000000 0.000000 0.000000
1.000000 0.000000 0.000000
0.000000 0.000635 0.000000
0.000000 0.000635 0.000000
0.000000 0.000635 0.000000
0.000635 0.000635 0.000000
0.023975 0.000635 0.000000
0.353549 0.000635 0.000000
0.384764 0.000635 0.000000
0.417895 0.000635 0.000000
0.453079 0.000635 0.000000
0.490458 0.000635 0.000000
0.530186 0.000635 0.000000
0.572423 0.000635 0.000000
0.617341 0.000635 0.000000
0.665122 0.000635 0.000000
0.715959 0.000635 0.000000
0.770057 0.000635 0.000000
0.827635 0.000635 0.000000
0.888925 0.000635 0.000000
0.954173 0.000635 0.000000
1.000000 0.000635 0.000000
1.000000 0.000635 0.000000
1.000000 0.000635 0.000000
1.000000 0.000635 0.000000
1.000000 0.000635 0.000000
1.000000 0.000635 0.000000
1.000000 0.000635 0.000000
1.000000 0.000635 0.000000
1.000000 0.000635 0.000000
1.000000 0.000635 0.000000
1.000000 0.000635 0.000000
1.000000 0.000635 0.000000
1.000000 0.000635 0.000000
1.000000 0.000635 0.000000
0.000000 0.023975 0.000000
0.000000 0.023975 0.000000
0.000000 0.023975 0.000000
0.000635 0.023975 0.000000
0.023975 0.023975 0.000000
0.353549 0.023975 0.000000
0.384764 0.023975 0.000000
0.417895 0.023975 0.000000
0.453079 0.023975 0.000000
0.490458 0.023975 0.000000
0.530186 0.023975 0.000000
0.572423 0.023975 0.000000
0.617341 0.023975 0.000000
0.665122 0.023975 0.000000
0.715959 0.023975 0.000000
0.770057 0.023975 0.000000
0.827635 0.023975 0.000000
0.888925 0.023975 0.000000
0.954173 0.023975 0.000000
1.000000 0.023975 0.000000
1.000000 0.023975 0.000000
1.000000 0.023975 0.000000
1.000000 0.023975 0.000000
1.000000 0.023975 0.000000
1.000000 0.023975 0.000000
1.000000 0.023975 0.000000
1.000000 0.023975 0.000000
1.000000 0.023975 0.000000
1.000000 0.023975 0.000000
1.000000 0.023975 0.000000
1.000000 0.023975 0.000000
1.000000 0.023975 0.000000
1.000000 0.023975 0.000000
0.000000 0.353549 0.000000
0.000000 0.353549 0.000000
0.000000 0.353549 0.000000
0.000635 0.353549 0.000000
0.023975 0.353549 0.000000
0.353549 0.353549 0.000000
0.384764 0.353549 0.000000
0.417895 0.353549 0.000000
0.453079 0.353549 0.000000
0.490458 0.353549 0.000000
0.530186 0.353549 0.000000
0.572423 0.353549 0.000000
0.617341 0.353549 0.000000
0.665122 0.353549 0.000000
0.715959 0.353549 0.000000
0.770057 0.353549 0.000000
0.827635 0.353549 0.000000
0.888925 0.353549 0.000000
0.954173 0.353549 0.000000
1.000000 0.353549 0.000000
1.000000 0.353549 0.000000
1.000000 0.353549 0.000000
1.000000 0.353549 0.000000
1.000000 0.353549 0.000000
1.000000 0.353549 0.000000
1.000000 0.353549 0.000000
1.000000 0.353549 0.000000
1.000000 0.353549 0.000000
1.000000 0.353549 0.000000
1.000000 0.353549 0.000000
1.000000 0.353549 0.000000
1.000000 0.353549 0.000000
1.000000 0.353549 0.000000
0.000000 0.384764 0.000000
0.000000 0.384764 0.000000
0.000000 0.384764 0.000000
0.000635 0.384764 0.000000
0.023975 0.384764 0.000000
0.353549 0.384764 0.000000
0.384764 0.384764 0.000000
0.417895 0.384764 0.000000
0.453079 0.384764 0.000000
0.490458 0.384764 0.000000
0.530186 0.384764 0.000000
0.572423 0.384764 0.000000
0.617341 0.384764 0.000000
0.665122 0.384764 0.000000
0.715959 0.384764 0.000000
0.770057 0.384764 0.000000
0.827635 0.384764 0.000000
0.888925 0.384764 0.000000
0.954173 0.384764 0.000000
1.000000 0.384764 0.000000
1.000000 0.384764 0.000000
1.000000 0.384764 0.000000
1.000000 0.384764 0.000000
1.000000 0.384764 0.000000
1.000000 0.384764 0.000000
1.000000 0.384764 0.000000
1.000000 0.384764 0.000000
1.000000 0.384764 0.000000
1.000000 0.384764 0.000000
1.000000 0.384764 0.000000
1.000000 0.384764 0.000000
1.000000 0.384764 0.000000
1.000000 0.384764 0.000000
0.000000 0.417895 0.000000
0.000000 0.417895 0.000000
0.000000 0.417895 0.000000
0.000635 0.417895 0.000000
0.023975 0.417895 0.000000
0.353549 0.417895 0.000000
0.384764 0.417895 0.000000
0.417895 0.417895 0.000000
0.453079 0.417895 0.000000
0.490458 0.417895 0.000000
0.530186 0.417895 0.000000
0.572423 0.417895 0.000000
0.617341 0.417895 0.000000
0.665122 0.417895 0.000000
0.715959 0.417895 0.000000
0.770057 0.417895 0.000000
0.827635 0.417895 0.000000
0.888925 0.417895 0.000000
0.954173 0.417895 0.000000
1.000000 0.417895 0.000000
1.000000 0.417895 0.000000
1.000000 0.417895 0.000000
1.000000 0.417895 0.000000
1.000000 0.417895 0.000000
1.000000 0.417895 0.000000
1.000000 0.417895 0.000000
1.000000 0.417895 0.000000
1.000000 0.417895 0.000000
1.000000 0.417895 0.000000
1.000000 0.417895 0.000000
1.000000 0.417895 0.000000
1.000000 0.417895 0.000000
1.000000 0.417895 0.000000
0.000000 0.453079 0.000000
0.000000 0.453079 0.000000
0.000000 0.453079 0.000000
0.000635 0.453079 0.000000
0.023975 0.453079 0.000000
0.353549 0.453079 0.000000
0.384764 0.453079 0.000000
0.417895 0.453079 0.000000
0.453079 0.453079 0.000000
0.490458 0.453079 0.000000
0.530186 0.453079 0.000000
0.572423 0.453079 0.000000
0.617341 0.453079 0.000000
0.665122 0.453079 0.000000
0.715959 0.453079 0.000000
0.770057 0.453079 0.000000
0.827635 0.453079 0.000000
0.888925 0.453079 0.000000
0.954173 0.453079 0.000000
1.000000 0.453079 0.000000
1.000000 0.453079 0.000000
1.000000 0.453079 0.000000
1.000000 0.453079 0.000000
1.000000 0.453079 0.000000
1.000000 0.453079 0.000000
1.000000 0.453079 0.000000
1.000000 0.453079 0.000000
1.000000 0.453079 0.000000
1.000000 0.453079 0.000000
1.000000 0.453079 0.000000
1.000000 0.453079 0.000000
1.000000 0.453079 0.000000
1.000000 0.453079 0.000000
0.000000 0.490458 0.000000
0.000000 0.490458 0.000000
0.000000 0.490458 0.000000
0.000635 0.490458 0.000000
0.023975 0.490458 0.000000
0.353549 0.490458 0.000000
0.384764 0.490458 0.000000
0.417895 0.490458 0.000000
0.453079 0.490458 0.000000
0.490458 0.490458 0.000000
0.530186 0.490458 0.000000
0.572423 0.490458 0.000000
0.617341 0.490458 0.000000
0.665122 0.490458 0.000000
0.715959 0.490458 0.000000
0.770057 0.490458 0.000000
0.827635 0.490458 0.000000
0.888925 0.490458 0.000000
0.954173 0.490458 0.000000
1.000000 0.490458 0.000000
1.000000 0.490458 0.000000
1.000000 0.490458 0.000000
1.000000 0.490458 0.000000
1.000000 0.490458 0.000000
1.000000 0.490458 0.000000
1.000000 0.490458 0.000000
1.000000 0.490458 0.000000
1.000000 0.490458 0.000000
1.000000 0.490458 0.000000
1.000000 0.490458 0.000000
1.000000 0.490458 0.000000
1.000000 0.490458 0.000000
1.000000 0.490458 0.000000
0.000000 0.530186 0.000000
0.000000 0.530186 0.000000
0.000000 0.530186 0.000000
0.000635 0.530186 0.000000
0.023975 0.530186 0.000000
0.353549 0.530186 0.000000
0.384764 0.530186 0.000000
0.417895 0.530186 0.000000
0.453079 0.530186 0.000000
0.490458 0.530186 0.000000
0.530186 0.530186 0.000000
0.572423 0.530186 0.000000
0.617341 0.530186 0.000000
0.665122 0.530186 0.000000
0.715959 0.530186 0.000000
0.770057 0.530186 0.000000
0.827635 0.530186 0.000000
0.888925 0.530186 0.000000
0.954173 0.530186 0.000000
1.000000 0.530186 0.000000
1.000000 0.530186 0.000000
1.000000 0.530186 0.000000
1.000000 0.530186 0.000000
1.000000 0.530186 0.000000
1.000000 0.530186 0.000000
1.000000 0.530186 0.000000
1.000000 0.530186 0.000000
1.000000 0.530186 0.000000
1.000000 0.530186 0.000000
1.000000 0.530186 0.000000
1.000000 0.530186 0.000000
1.000000 0.530186 0.000000
1.000000 0.530186 0.000000
0.000000 0.572423 0.000000
0.000000 0.572423 0.000000
0.000000 0.572423 0.000000
0.000635 0.572423 0.000000
0.023975 0.572423 0.000000
0.353549 0.572423 0.000000
0.384764 0.572423 0.000000
0.417895 0.572423 0.000000
0.453079 0.572423 0.000000
0.490458 0.572423 0.000000
0.530186 0.572423 0.000000
0.572423 0.572423 0.000000
0.617341 0.572423 0.000000
0.665122 0.572423 0.000000
0.715959 0.572423 0.000000
0.770057 0.572423 0.000000
0.827635 0.572423 0.000000
0.888925 0.572423 0.000000
0.954173 0.572423 0.000000
1.000000 0.572423 0.000000
1.000000 0.572423 0.000000
1.000000 0.572423 0.000000
1.000000 0.572423 0.000000
1.000000 0.572423 0.000000
1.000000 0.572423 0.000000
1.000000 0.572423 0.000000
1.000000 0.572423 0.000000
1.000000 0.572423 0.000000
1.000000 0.572423 0.000000
1.000000 0.572423 0.000000
1.000000 0.572423 0.000000
1.000000 0.572423 0.000000
1.000000 0.572423 0.000000
0.000000 0.617341 0.000000
0.000000 0.617341 0.000000
0.000000 0.617341 0.000000
0.000635 0.617341 0.000000
0.023975 0.617341 0.000000
0.353549 0.617341 0.000000
0.384764 0.617341 0.000000
0.417895 0.617341 0.000000
0.453079 0.617341 0.000000
0.490458 0.617341 0.000000
0.530186 0.617341 0.000000
0.572423 0.617341 0.000000
0.617341 0.617341 0.000000
0.665122 0.617341 0.000000
0.715959 0.617341 0.000000
0.770057 0.617341 0.000000
0.827635 0.617341 0.000000
0.888925 0.617341 0.000000
0.954173 0.617341 0.000000
1.000000 0.617341 0.000000
1.000000 0.617341 0.000000
1.000000 0.617341 0.000000
1.000000 0.617341 0.000000
1.000000 0.617341 0.000000
1.000000 0.617341 0.000000
1.000000 0.617341 0.000000
1.000000 0.617341 0.000000
1.000000 0.617341 0.000000
1.000000 0.617341 0.000000
1.000000 0.617341 0.000000
1.000000 0.617341 0.000000
1.000000 0.617341 0.000000
1.000000 0.617341 0.000000
0.000000 0.665122 0.000000
0.000000 0.665122 0.000000
0.000000 0.665122 0.000000
0.000635 0.665122 0.000000
0.023975 0.665122 0.000000
0.353549 0.665122 0.000000
0.384764 0.665122 0.000000
0.417895 0.665122 0.000000
0.453079 0.665122 0.000000
0.490458 0.665122 0.000000
0.530186 0.665122 0.000000
0.572423 0.665122 0.000000
0.617341 0.665122 0.000000
0.665122 0.665122 0.000000
0.715959 0.665122 0.000000
0.770057 0.665122 0.000000
0.827635 0.665122 0.000000
0.888925 0.665122 0.000000
0.954173 0.665122 0.000000
1.000000 0.665122 0.000000
1.000000 0.665122 0.000000
1.000000 0.665122 0.000000
1.000000 0.665122 0.000000
1.000000 0.665122 0.000000
1.000000 0.665122 0.000000
1.000000 0.665122 0.000000
1.000000 0.665122 0.000000
1.000000 0.665122 0.000000
1.000000 0.665122 0.000000
1.000000 0.665122 0.000000
1.000000 0.665122 0.000000
1.000000 0.665122 0.000000
1.000000 0.665122 0.000000
0.000000 0.715959 0.000000
0.000000 0.715959 0.000000
0.000000 0.715959 0.000000
0.000635 0.715959 0.000000
0.023975 0.715959 0.000000
0.353549 0.715959 0.000000
0.384764 0.715959 0.000000
0.417895 0.715959 0.000000
0.453079 0.715959 0.000000
0.490458 0.715959 0.000000
0.530186 0.715959 0.000000
0.572423 0.715959 0.000000
0.617341 0.715959 0.000000
0.665122 0.715959 0.000000
0.715959 0.715959 0.000000
0.770057 0.715959 0.000000
0.827635 0.715959 0.000000
0.888925 0.715959 0.000000
0.954173 0.715959 0.000000
1.000000 0.715959 0.000000
1.000000 0.715959 0.000000
1.000000 0.715959 0.000000
1.000000 0.715959 0.000000
1.000000 0.715959 0.000000
1.000000 0.715959 0.000000
1.000000 0.715959 0.000000
1.000000 0.715959 0.000000
1.000000 0.715959 0.000000
1.000000 0.715959 0.000000
1.000000 0.715959 0.000000
1.000000 0.715959 0.000000
1.000000 0.715959 0.000000
1.000000 0.715959 0.000000
0.000000 0.770057 0.000000
0.000000 0.770057 0.000000
0.000000 0.770057 0.000000
0.000635 0.770057 0.000000
0.023975 0.770057 0.000000
0.353549 0.770057 0.000000
0.384764 0.770057 0.000000
0.417895 0.770057 0.000000
0.453079 0.770057 0.000000
0.490458 0.770057 0.000000
0.530186 0.770057 0.000000
0.572423 0.770057 0.000000
0.617341 0.770057 0.000000
0.665122 0.770057 0.000000
0.715959 0.770057 0.000000
0.770057 0.770057 0.000000
0.827635 0.770057 0.000000
0.888925 0.770057 0.000000
0.954173 0.770057 0.000000
1.000000 0.770057 0.000000
1.000000 0.770057 0.000000
1.000000 0.770057 0.000000
1.000000 0.770057 0.000000
1.000000 0.770057 0.000000
1.000000 0.770057 0.000000
1.000000 0.770057 0.000000
1.000000 0.770057 0.000000
1.000000 0.770057 0.000000
1.000000 0.770057 0.000000
1.000000 0.770057 0.000000
1.000000 0.770057 0.000000
1.000000 0.770057 0.000000
1.000000 0.770057 0.000000
0.000000 0.827635 0.000000
0.000000 0.827635 0.000000
0.000000 0.827635 0.000000
0.000635 0.827635 0.000000
0.023975 0.827635 0.000000
0.353549 0.827635 0.000000
0.384764 0.827635 0.000000
0.417895 0.827635 0.000000
0.453079 0.827635 0.000000
0.490458 0.827635 0.000000
0.530186 0.827635 0.000000
0.572423 0.827635 0.000000
0.617341 0.827635 0.000000
0.665122 0.827635 0.000000
0.715959 0.827635 0.000000
0.770057 0.827635 0.000000
0.827635 0.827635 0.000000
0.888925 0.827635 0.000000
0.954173 0.827635 0.000000
1.000000 0.827635 0.000000
1.000000 0.827635 0.000000
1.000000 0.827635 0.000000
1.000000 0.827635 0.000000
1.000000 0.827635 0.000000
1.000000 0.827635 0.000000
1.000000 0.827635 0.000000
1.000000 0.827635 0.000000
1.000000 0.827635 0.000000
1.000000 0.827635 0.000000
1.000000 0.827635 0.000000
1.000000 0.827635 0.000000
1.000000 0.827635 0.000000
1.000000 0.827635 0.000000
0.000000 0.888925 0.000000
0.000000 0.888925 0.000000
0.000000 0.888925 0.000000
0.000635 0.888925 0.000000
0.023975 0.888925 0.000000
0.353549 0.888925 0.000000
0.384764 0.888925 0.000000
0.417895 0.888925 0.000000
0.453079 0.888925 0.000000
0.490458 0.888925 0.000000
0.530186 0.888925 0.000000
0.572423 0.888925 0.000000
0.617341 0.888925 0.000000
0.665122 0.888925 0.000000
0.715959 0.888925 0.000000
0.770057 0.888925 0.000000
0.827635 0.888925 0.000000
0.888925 0.888925 0.000000
0.954173 0.888925 0.000000
1.000000 0.888925 0.000000
1.000000 0.888925 0.000000
1.000000 0.888925 0.000000
1.000000 0.888925 0.000000
1.000000 0.888925 0.000000
1.000000 0.888925 0.000000
1.000000 0.888925 0.000000
1.000000 0.888925 0.000000
1.000000 0.888925 0.000000
1.000000 0.888925 0.000000
1.000000 0.888925 0.000000
1.000000 0.888925 0.000000
1.000000 0.888925 0.000000
1.000000 0.888925 0.000000
0.000000 0.954173 0.000000
0.000000 0.954173 0.000000
0.000000 0.954173 0.000000
0.000635 0.954173 0.000000
0.023975 0.954173 0.000000
0.353549 0.954173 0.000000
0.384764 0.954173 0.000000
0.417895 0.954173 0.000000
0.453079 0.954173 0.000000
0.490458 0.954173 0.000000
0.530186 0.954173 0.000000
0.572423 0.954173 0.000000
0.617341 0.954173 0.000000
0.665122 0.954173 0.000000
0.715959 0.954173 0.000000
0.770057 0.954173 0.000000
0.827635 0.954173 0.000000
0.888925 0.954173 0.000000
0.954173 0.954173 0.000000
1.000000 0.954173 0.000000
1.000000 0.954173 0.000000
1.000000 0.954173 0.000000
1.000000 0.954173 0.000000
1.000000 0.954173 0.000000
1.000000 0.954173 0.000000
1.000000 0.954173 0.000000
1.000000 0.954173 0.000000
1.000000 0.954173 0.000000
1.000000 0.954173 0.000000
1.000000 0.954173 0.000000
1.000000 0.954173 0.000000
1.000000 0.954173 0.000000
1.000000 0.954173 0.000000
0.000000 1.000000 0.000000
0.000000 1.000000 0.000000
0.000000 1.000000 0.000000
0.000635 1.000000 0.000000
0.023975 1.000000 0.000000
0.353549 1.000000 0.000000
0.384764 1.000000 0.000000
0.417895 1.000000 0.000000
0.453079 1.000000 0.000000
0.490458 1.000000 0.000000
0.530186 1.000000 0.000000
0.572423 1.000000 0.000000
0.617341 1.000000 0.000000
0.665122 1.000000 0.000000
0.715959 1.000000 0.000000
0.770057 1.000000 0.000000
0.827635 1.000000 0.000000
0.888925 1.000000 0.000000
0.954173 1.000000 0.000000
1.000000 1.000000 0.000000
1.000000 1.000000 0.000000
1.000000 1.000000 0.000000
1.000000 1.000000 0.000000
1.000000 1.000000 0.000000
1.000000 1.000000 0.000000
1.000000 1.000000 0.000000
1.000000 1.000000 0.000000
1.000000 1.000000 0.000000
1.000000 1.000000 0.000000
1.000000 1.000000 0.000000
1.000000 1.000000 0.000000
1.000000 1.000000 0.000000
1.000000 1.000000 0.000000
0.000000 1.000000 0.000000
0.000000 1.000000 0.000000
0.000000 1.000000 0.000000
0.000635 1.000000 0.000000
0.023975 1.000000 0.000000
0.353549 1.000000 0.000000
0.384764 1.000000 0.000000
0.417895 1.000000 0.000000
0.453079 1.000000 0.000000
0.490458 1.000000 0.000000
0.530186 1.000000 0.000000
0.572423 1.000000 0.000000
0.617341 1.000000 0.000000
0.665122 1.000000 0.000000
0.715959 1.000000 0.000000
0.770057 1.000000 0.000000
0.827635 1.000000 0.000000
0.888925 1.000000 0.000000
0.954173 1.000000 0.000000
1.000000 1.000000 0.000000
1.000000 1.000000 0.000000
1.000000 1.000000 0.000000
1.000000 1.000000 0.000000
1.000000 1.000000 0.000000
1.000000 1.000000 0.000000
1.000000 1.000000 0.000000
1.000000 1.000000 0.000000
1.000000 1.000000 0.000000
1.000000 1.000000 0.000000
1.000000 1.000000 0.000000
1.000000 1.000000 0.000000
1.000000 1.000000 0.000000
1.000000 1.000000 0.000000
0.000000 1.000000 0.000000
0.000000 1.000000 0.000000
0.000000 1.000000 0.000000
0.000635 1.000000 0.000000
0.023975 1.000000 0.000000
0.353549 1.000000 0.000000
0.384764 1.000000 0.000000
0.417895 1.000000 0.000000
0.453079 1.000000 0.000000
0.490458 1.000000 0.000000
0.530186 1.000000 0.000000
0.572423 1.000000 0.000000
0.617341 1.000000 0.000000
0.665122 1.000000 0.000000
0.715959 1.000000 0.000000
0.770057 1.000000 0.000000
0.827635 1.000000 0.000000
0.888925 1.000000 0.000000
0.954173 1.000000 0.000000
1.000000 1.000000 0.000000
1.000000 1.000000 0.000000
1.000000 1.000000 0.000000
1.000000 1.000000 0.000000
1.000000 1.000000 0.000000
1.000000 1.000000 0.000000
1.000000 1.000000 0.000000
1.000000 1.000000 0.000000
1.000000 1.000000 0.000000
1.000000 1.000000 0.000000
1.000000 1.000000 0.000000
1.000000 1.000000 0.000000
1.000000 1.000000 0.000000
1.000000 1.000000 0.000000
0.000000 1.000000 0.000000
0.000000 1.000000 0.000000
0.000000 1.000000 0.000000
0.000635 1.000000 0.000000
0.023975 1.000000 0.000000
0.353549 1.000000 0.000000
0.384764 1.000000 0.000000
0.417895 1.000000 0.000000
0.453079 1.000000 0.000000
0.490458 1.000000 0.000000
0.530186 1.000000 0.000000
0.572423 1.000000 0.000000
0.617341 1.000000 0.000000
0.665122 1.000000 0.000000
0.715959 1.000000 0.000000
0.770057 1.000000 0.000000
0.827635 1.000000 0.000000
0.888925 1.000000 0.000000
0.954173 1.000000 0.000000
1.000000 1.000000 0.000000
1.000000 1.000000 0.000000
1.000000 1.000000 0.000000
1.000000 1.000000 0.000000
1.000000 1.000000 0.000000
1.000000 1.000000 0.000000
1.000000 1.000000 0.000000
1.000000 1.000000 0.000000
1.000000 1.000000 0.000000
1.000000 1.000000 0.000000
1.000000 1.000000 0.000000
1.000000 1.000000 0.000000
1.000000 1.000000 0.000000
1.000000 1.000000 0.000000
0.000000 1.000000 0.000000
0.000000 1.000000 0.000000
0.000000 1.000000 0.000000
0.000635 1.000000 0.000000
0.023975 1.000000 0.000000
0.353549 1.000000 0.000000
0.384764 1.000000 0.000000
0.417895 1.000000 0.000000
0.453079 1.000000 0.000000
0.490458 1.000000 0.000000
0.530186 1.000000 0.000000
0.572423 1.000000 0.000000
0.617341 1.000000 0.000000
0.665122 1.000000 0.000000
0.715959 1.000000 0.000000
0.770057 1.000000 0.000000
0.827635 1.000000 0.000000
0.888925 1.000000 0.000000
0.954173 1.000000 0.000000
1.000000 1.000000 0.000000
1.000000 1.000000 0.000000
1.000000 1.000000 0.000000
1.000000 1.000000 0.000000
1.000000 1.000000 0.000000
1.000000 1.000000 0.000000
1.000000 1.000000 0.000000
1.000000 1.000000 0.000000
1.000000 1.000000 0.000000
1.000000 1.000000 0.000000
1.000000 1.000000 0.000000
1.000000 1.000000 0.000000
1.000000 1.000000 0.000000
1.000000 1.000000 0.000000
0.000000 1.000000 0.000000
0.000000 1.000000 0.000000
0.000000 1.000000 0.000000
0.000635 1.000000 0.000000
0.023975 1.000000 0.000000
0.353549 1.000000 0.000000
0.384764 1.000000 0.000000
0.417895 1.000000 0.000000
0.453079 1.000000 0.000000
0.490458 1.000000 0.000000
0.530186 1.000000 0.000000
0.572423 1.000000 0.000000
0.617341 1.000000 0.000000
0.665122 1.000000 0.000000
0.715959 1.000000 0.000000
0.770057 1.000000 0.000000
0.827635 1.000000 0.000000
0.888925 1.000000 0.000000
0.954173 1.000000 0.000000
1.000000 1.000000 0.000000
1.000000 1.000000 0.000000
1.000000 1.000000 0.000000
1.000000 1.000000 0.000000
1.000000 1.000000 0.000000
1.000000 1.000000 0.000000
1.000000 1.000000 0.000000
1.000000 1.000000 0.000000
1.000000 1.000000 0.000000
1.000000 1.000000 0.000000
1.000000 1.000000 0.000000
1.000000 1.000000 0.000000
1.000000 1.000000 0.000000
1.000000 1.000000 0.000000
0.000000 1.000000 0.000000
0.000000 1.000000 0.000000
0.000000 1.000000 0.000000
0.000635 1.000000 0.000000
0.023975 1.000000 0.000000
0.353549 1.000000 0.000000
0.384764 1.000000 0.000000
0.417895 1.000000 0.000000
0.453079 1.000000 0.000000
0.490458 1.000000 0.000000
0.530186 1.000000 0.000000
0.572423 1.000000 0.000000
0.617341 1.000000 0.000000
0.665122 1.000000 0.000000
0.715959 1.000000 0.000000
0.770057 1.000000 0.000000
0.827635 1.000000 0.000000
0.888925 1.000000 0.000000
0.954173 1.000000 0.000000
1.000000 1.000000 0.000000
1.000000 1.000000 0.000000
1.000000 1.000000 0.000000
1.000000 1.000000 0.000000
1.000000 1.000000 0.000000
1.000000 1.000000 0.000000
1.000000 1.000000 0.000000
1.000000 1.000000 0.000000
1.000000 1.000000 0.000000
1.000000 1.000000 0.000000
1.000000 1.000000 0.000000
1.000000 1.000000 0.000000
1.000000 1.000000 0.000000
1.000000 1.000000 0.000000
0.000000 1.000000 0.000000
0.000000 1.000000 0.000000
0.000000 1.000000 0.000000
0.000635 1.000000 0.000000
0.023975 1.000000 0.000000
0.353549 1.000000 0.000000
0.384764 1.000000 0.000000
0.417895 1.000000 0.000000
0.453079 1.000000 0.000000
0.490458 1.000000 0.000000
0.530186 1.000000 0.000000
0.572423 1.000000 0.000000
0.617341 1.000000 0.000000
0.665122 1.000000 0.000000
0.715959 1.000000 0.000000
0.770057 1.000000 0.000000
0.827635 1.000000 0.000000
0.888925 1.000000 0.000000
0.954173 1.000000 0.000000
1.000000 1.000000 0.000000
1.000000 1.000000 0.000000
1.000000 1.000000 0.000000
1.000000 1.000000 0.000000
1.000000 1.000000 0.000000
1.000000 1.000000 0.000000
1.000000 1.000000 0.000000
1.000000 1.000000 0.000000
