agents/video/luts/SLog3_SGamut3Cine_to_Rec709.cube
# Sony S-Log3 / S-Gamut3 to Rec.709 (warm bias)
LUT_3D_SIZE 5
DOMAIN_MIN 0.0 0.0 0.0
DOMAIN_MAX 1.0 1.0 1.0
0.000000 0.000000 0.000000
0.159827 0.000000 0.000000
0.680245 0.000000 0.000000
1.000000 0.000000 0.000000
1.000000 0.000000 0.000000
0.000000 0.162528 0.000000
0.149361 0.155397 0.000000
0.677585 0.088152 0.000000
1.000000 0.000000 0.000000
1.000000 0.000000 0.000000
0.000000 0.684803 0.000000
0.041333 0.682967 0.000000
0.656434 0.668453 0.000000
1.000000 0.508957 0.000000
1.000000 0.000000 0.000000
0.000000 1.000000 0.000000
0.000000 1.000000 0.000000
0.400268 1.000000 0.000000
1.000000 1.000000 0.000000
1.000000 1.000000 0.000000
0.000000 1.000000 0.000000
0.000000 1.000000 0.000000
0.000000 1.000000 0.000000
1.000000 1.000000 0.000000
1.000000 1.000000 0.000000
0.000000 0.000000 0.150305
0.156123 0.000000 0.145444
0.679290 0.000000 0.102490
1.000000 0.000000 0.000000
1.000000 0.000000 0.000000
0.000000 0.150848 0.146079
0.145463 0.143294 0.141112
0.676626 0.070174 0.096971
1.000000 0.000000 0.000000
1.000000 0.000000 0.000000
0.000000 0.681825 0.109434
0.035628 0.679981 0.103347
0.655442 0.665398 0.049084
1.000000 0.504888 0.000000
1.000000 0.000000 0.000000
0.000000 1.000000 0.000000
0.000000 1.000000 0.000000
0.398620 1.000000 0.000000
1.000000 1.000000 0.000000
1.000000 1.000000 0.000000
0.000000 1.000000 0.000000
0.000000 1.000000 0.000000
0.000000 1.000000 0.000000
1.000000 1.000000 0.000000
1.000000 1.000000 0.000000
0.000000 0.000000 0.655158
0.124608 0.000000 0.653915
0.671786 0.000000 0.644127
1.000000 0.000000 0.541812
1.000000 0.000000 0.000000
0.000000 0.027785 0.654076
0.111967 0.016748 0.652831
0.669090 0.000000 0.643025
1.000000 0.000000 0.540491
1.000000 0.000000 0.000000
0.000000 0.658095 0.645564
0.000000 0.656179 0.644302
0.647644 0.641020 0.634356
1.000000 0.471907 0.530064
1.000000 0.000000 0.000000
0.000000 1.000000 0.557818
0.000000 1.000000 0.556346
0.385524 1.000000 0.544715
1.000000 1.000000 0.417880
1.000000 1.000000 0.000000
0.000000 1.000000 0.000000
0.000000 1.000000 0.000000
0.000000 1.000000 0.000000
1.000000 1.000000 0.000000
1.000000 1.000000 0.000000
0.000000 0.000000 1.000000
0.000000 0.000000 1.000000
0.595439 0.000000 1.000000
1.000000 0.000000 1.000000
1.000000 0.000000 1.000000
0.000000 0.000000 1.000000
0.000000 0.000000 1.000000
0.592375 0.000000 1.000000
1.000000 0.000000 1.000000
1.000000 0.000000 1.000000
0.000000 0.357645 1.000000
0.000000 0.354079 1.000000
0.567871 0.324985 1.000000
1.000000 0.000000 1.000000
1.000000 0.000000 1.000000
0.000000 1.000000 1.000000
0.000000 1.000000 1.000000
0.228762 1.000000 1.000000
1.000000 1.000000 1.000000
1.000000 1.000000 1.000000
0.000000 1.000000 1.000000
0.000000 1.000000 1.000000
0.000000 1.000000 1.000000
1.000000 1.000000 1.000000
1.000000 1.000000 1.000000
0.000000 0.000000 1.000000
0.000000 0.000000 1.000000
0.000000 0.000000 1.000000
1.000000 0.000000 1.000000
1.000000 0.000000 1.000000
0.000000 0.000000 1.000000
0.000000 0.000000 1.000000
0.000000 0.000000 1.000000
1.000000 0.000000 1.000000
1.000000 0.000000 1.000000
0.000000 0.000000 1.000000
0.000000 0.000000 1.000000
0.000000 0.000000 1.000000
1.000000 0.000000 1.000000
1.000000 0.000000 1.000000
0.000000 1.000000 1.000000
0.000000 1.000000 1.000000
0.000000 1.000000 1.000000
1.000000 1.000000 1.000000
1.000000 0.000000 1.000000
0.000000 1.000000 1.000000
0.000000 1.000000 1.000000
0.000000 1.000000 1.000000
0.856622 1.000000 1.000000
1.000000 1.000000 1.000000
