agents/video/luts/SLog3_SGamut3Cine_to_Rec709.cube
# Sony S-Log3 / S-Gamut3 to Rec.709 (warm bias)
LUT_3D_SIZE 33
DOMAIN_MIN 0.0 0.0 0.0
DOMAIN_MAX 1.0 1.0 1.0
0.000000 0.000000 0.000000
0.000000 0.000000 0.000000
0.000000 0.000000 0.000000
0.006877 0.000000 0.000000
0.030625 0.000000 0.000000
0.054374 0.000000 0.000000
0.084308 0.000000 0.000000
0.120715 0.000000 0.000000
0.159827 0.000000 0.000000
0.202560 0.000000 0.000000
0.249768 0.000000 0.000000
0.302313 0.000000 0.000000
0.361106 0.000000 0.000000
0.427137 0.000000 0.000000
0.501500 0.000000 0.000000
0.585414 0.000000 0.000000
0.680245 0.000000 0.000000
0.787531 0.000000 0.000000
0.909006 0.000000 0.000000
1.000000 0.000000 0.000000
1.000000 0.000000 0.000000
1.000000 0.000000 0.000000
1.000000 0.000000 0.000000
1.000000 0.000000 0.000000
1.000000 0.000000 0.000000
1.000000 0.000000 0.000000
1.000000 0.000000 0.000000
1.000000 0.000000 0.000000
1.000000 0.000000 0.000000
1.000000 0.000000 0.000000
1.000000 0.000000 0.000000
1.000000 0.000000 0.000000
1.000000 0.000000 0.000000
0.000000 0.000000 0.000000
0.000000 0.000000 0.000000
0.000000 0.000000 0.000000
0.005341 0.000000 0.000000
0.029090 0.000000 0.000000
0.052838 0.000000 0.000000
0.082794 0.000000 0.000000
0.119504 0.000000 0.000000
0.158836 0.000000 0.000000
0.201739 0.000000 0.000000
0.249081 0.000000 0.000000
0.301734 0.000000 0.000000
0.360616 0.000000 0.000000
0.426721 0.000000 0.000000
0.501146 0.000000 0.000000
0.585113 0.000000 0.000000
0.679988 0.000000 0.000000
0.787311 0.000000 0.000000
0.908819 0.000000 0.000000
1.000000 0.000000 0.000000
1.000000 0.000000 0.000000
1.000000 0.000000 0.000000
1.000000 0.000000 0.000000
1.000000 0.000000 0.000000
1.000000 0.000000 0.000000
1.000000 0.000000 0.000000
1.000000 0.000000 0.000000
1.000000 0.000000 0.000000
1.000000 0.000000 0.000000
1.000000 0.000000 0.000000
1.000000 0.000000 0.000000
1.000000 0.000000 0.000000
1.000000 0.000000 0.000000
0.000000 0.000000 0.000000
0.000000 0.000000 0.000000
0.000000 0.000000 0.000000
0.003806 0.000000 0.000000
0.027554 0.000000 0.000000
0.051303 0.000000 0.000000
0.081265 0.000000 0.000000
0.118285 0.000000 0.000000
0.157841 0.000000 0.000000
0.200915 0.000000 0.000000
0.248393 0.000000 0.000000
0.301155 0.000000 0.000000
0.360126 0.000000 0.000000
0.426306 0.000000 0.000000
0.500793 0.000000 0.000000
0.584811 0.000000 0.000000
0.679731 0.000000 0.000000
0.787092 0.000000 0.000000
0.908631 0.000000 0.000000
1.000000 0.000000 0.000000
1.000000 0.000000 0.000000
1.000000 0.000000 0.000000
1.000000 0.000000 0.000000
1.000000 0.000000 0.000000
1.000000 0.000000 0.000000
1.000000 0.000000 0.000000
1.000000 0.000000 0.000000
1.000000 0.000000 0.000000
1.000000 0.000000 0.000000
1.000000 0.000000 0.000000
1.000000 0.000000 0.000000
1.000000 0.000000 0.000000
1.000000 0.000000 0.000000
0.000000 0.008999 0.000000
0.000000 0.007931 0.000000
0.000000 0.006862 0.000000
0.002270 0.005794 0.000000
0.026019 0.004726 0.000000
0.049767 0.003658 0.000000
0.079482 0.002321 0.000000
0.117057 0.000447 0.000000
0.156842 0.000000 0.000000
0.200089 0.000000 0.000000
0.247702 0.000000 0.000000
0.300574 0.000000 0.000000
0.359635 0.000000 0.000000
0.425889 0.000000 0.000000
0.500439 0.000000 0.000000
0.584510 0.000000 0.000000
0.679474 0.000000 0.000000
0.786872 0.000000 0.000000
0.908443 0.000000 0.000000
1.000000 0.000000 0.000000
1.000000 0.000000 0.000000
1.000000 0.000000 0.000000
1.000000 0.000000 0.000000
1.000000 0.000000 0.000000
1.000000 0.000000 0.000000
1.000000 0.000000 0.000000
1.000000 0.000000 0.000000
1.000000 0.000000 0.000000
1.000000 0.000000 0.000000
1.000000 0.000000 0.000000
1.000000 0.000000 0.000000
1.000000 0.000000 0.000000
1.000000 0.000000 0.000000
0.000000 0.033034 0.000000
0.000000 0.031966 0.000000
0.000000 0.030898 0.000000
0.000735 0.029829 0.000000
0.024484 0.028761 0.000000
0.048232 0.027693 0.000000
0.077946 0.026357 0.000000
0.115821 0.024482 0.000000
0.155837 0.021997 0.000000
0.199259 0.018705 0.000000
0.247010 0.014343 0.000000
0.299993 0.008563 0.000000
0.359144 0.000903 0.000000
0.425473 0.000000 0.000000
0.500085 0.000000 0.000000
0.584208 0.000000 0.000000
0.679216 0.000000 0.000000
0.786652 0.000000 0.000000
0.908256 0.000000 0.000000
1.000000 0.000000 0.000000
1.000000 0.000000 0.000000
1.000000 0.000000 0.000000
1.000000 0.000000 0.000000
1.000000 0.000000 0.000000
1.000000 0.000000 0.000000
1.000000 0.000000 0.000000
1.000000 0.000000 0.000000
1.000000 0.000000 0.000000
1.000000 0.000000 0.000000
1.000000 0.000000 0.000000
1.000000 0.000000 0.000000
1.000000 0.000000 0.000000
1.000000 0.000000 0.000000
0.000000 0.057069 0.000000
0.000000 0.056001 0.000000
0.000000 0.054933 0.000000
0.000000 0.053865 0.000000
0.022948 0.052796 0.000000
0.046697 0.051728 0.000000
0.076411 0.050392 0.000000
0.114576 0.048517 0.000000
0.154828 0.046033 0.000000
0.198427 0.042741 0.000000
0.246317 0.038378 0.000000
0.299410 0.032598 0.000000
0.358652 0.024938 0.000000
0.425056 0.014788 0.000000
0.499731 0.001339 0.000000
0.583907 0.000000 0.000000
0.678959 0.000000 0.000000
0.786433 0.000000 0.000000
0.908068 0.000000 0.000000
1.000000 0.000000 0.000000
1.000000 0.000000 0.000000
1.000000 0.000000 0.000000
1.000000 0.000000 0.000000
1.000000 0.000000 0.000000
1.000000 0.000000 0.000000
1.000000 0.000000 0.000000
1.000000 0.000000 0.000000
1.000000 0.000000 0.000000
1.000000 0.000000 0.000000
1.000000 0.000000 0.000000
1.000000 0.000000 0.000000
1.000000 0.000000 0.000000
1.000000 0.000000 0.000000
0.000000 0.087275 0.000000
0.000000 0.086244 0.000000
0.000000 0.085206 0.000000
0.000000 0.084161 0.000000
0.021027 0.083108 0.000000
0.044776 0.082048 0.000000
0.074490 0.080465 0.000000
0.113005 0.078590 0.000000
0.153558 0.076105 0.000000
0.197382 0.072814 0.000000
0.245446 0.068451 0.000000
0.298680 0.062671 0.000000
0.358036 0.055011 0.000000
0.424534 0.044861 0.000000
0.499287 0.031412 0.000000
0.583529 0.013589 0.000000
0.678637 0.000000 0.000000
0.786158 0.000000 0.000000
0.907833 0.000000 0.000000
1.000000 0.000000 0.000000
1.000000 0.000000 0.000000
1.000000 0.000000 0.000000
1.000000 0.000000 0.000000
1.000000 0.000000 0.000000
1.000000 0.000000 0.000000
1.000000 0.000000 0.000000
1.000000 0.000000 0.000000
1.000000 0.000000 0.000000
1.000000 0.000000 0.000000
1.000000 0.000000 0.000000
1.000000 0.000000 0.000000
1.000000 0.000000 0.000000
1.000000 0.000000 0.000000
0.000000 0.123491 0.000000
0.000000 0.122662 0.000000
0.000000 0.121829 0.000000
0.000000 0.120993 0.000000
0.018332 0.120152 0.000000
0.042081 0.119308 0.000000
0.071795 0.118246 0.000000
0.110778 0.116745 0.000000
0.151763 0.114737 0.000000
0.195908 0.112039 0.000000
0.244221 0.108398 0.000000
0.297652 0.103450 0.000000
0.357169 0.096656 0.000000
0.423800 0.087183 0.000000
0.498664 0.073596 0.000000
0.582998 0.055774 0.000000
0.678185 0.032157 0.000000
0.785772 0.000863 0.000000
0.907503 0.000000 0.000000
1.000000 0.000000 0.000000
1.000000 0.000000 0.000000
1.000000 0.000000 0.000000
1.000000 0.000000 0.000000
1.000000 0.000000 0.000000
1.000000 0.000000 0.000000
1.000000 0.000000 0.000000
1.000000 0.000000 0.000000
1.000000 0.000000 0.000000
1.000000 0.000000 0.000000
1.000000 0.000000 0.000000
1.000000 0.000000 0.000000
1.000000 0.000000 0.000000
1.000000 0.000000 0.000000
0.000000 0.162528 0.000000
0.000000 0.161848 0.000000
0.000000 0.161166 0.000000
0.000000 0.160482 0.000000
0.014761 0.159796 0.000000
0.038510 0.159107 0.000000
0.068224 0.158242 0.000000
0.107781 0.157023 0.000000
0.149361 0.155397 0.000000
0.193941 0.153222 0.000000
0.242588 0.150304 0.000000
0.296286 0.146372 0.000000
0.356018 0.141041 0.000000
0.422826 0.133744 0.000000
0.497837 0.123621 0.000000
0.582295 0.109271 0.000000
0.677585 0.088152 0.000000
0.785260 0.056762 0.000000
0.907066 0.015294 0.000000
1.000000 0.000000 0.000000
1.000000 0.000000 0.000000
1.000000 0.000000 0.000000
1.000000 0.000000 0.000000
1.000000 0.000000 0.000000
1.000000 0.000000 0.000000
1.000000 0.000000 0.000000
1.000000 0.000000 0.000000
1.000000 0.000000 0.000000
1.000000 0.000000 0.000000
1.000000 0.000000 0.000000
1.000000 0.000000 0.000000
1.000000 0.000000 0.000000
1.000000 0.000000 0.000000
0.000000 0.205272 0.000000
0.000000 0.204707 0.000000
0.000000 0.204141 0.000000
0.000000 0.203574 0.000000
0.010030 0.203005 0.000000
0.033778 0.202436 0.000000
0.063492 0.201721 0.000000
0.103726 0.200714 0.000000
0.146133 0.199374 0.000000
0.191309 0.197587 0.000000
0.240411 0.195199 0.000000
0.294466 0.191997 0.000000
0.354487 0.187687 0.000000
0.421531 0.181850 0.000000
0.496739 0.173880 0.000000
0.581361 0.162858 0.000000
0.676790 0.147314 0.000000
0.784581 0.124654 0.000000
0.906487 0.089400 0.000000
1.000000 0.034416 0.000000
1.000000 0.000000 0.000000
1.000000 0.000000 0.000000
1.000000 0.000000 0.000000
1.000000 0.000000 0.000000
1.000000 0.000000 0.000000
1.000000 0.000000 0.000000
1.000000 0.000000 0.000000
1.000000 0.000000 0.000000
1.000000 0.000000 0.000000
1.000000 0.000000 0.000000
1.000000 0.000000 0.000000
1.000000 0.000000 0.000000
1.000000 0.000000 0.000000
0.000000 0.252561 0.000000
0.000000 0.252088 0.000000
0.000000 0.251614 0.000000
0.000000 0.251139 0.000000
0.003760 0.250663 0.000000
0.027508 0.250187 0.000000
0.057222 0.249590 0.000000
0.098196 0.248750 0.000000
0.141774 0.247634 0.000000
0.187776 0.246148 0.000000
0.237499 0.244166 0.000000
0.292038 0.241519 0.000000
0.352448 0.237971 0.000000
0.419810 0.233199 0.000000
0.495280 0.226743 0.000000
0.580121 0.217939 0.000000
0.675734 0.205792 0.000000
0.783681 0.188719 0.000000
0.905718 0.163981 0.000000
1.000000 0.125985 0.000000
1.000000 0.059755 0.000000
1.000000 0.000000 0.000000
1.000000 0.000000 0.000000
1.000000 0.000000 0.000000
1.000000 0.000000 0.000000
1.000000 0.000000 0.000000
1.000000 0.000000 0.000000
1.000000 0.000000 0.000000
1.000000 0.000000 0.000000
1.000000 0.000000 0.000000
1.000000 0.000000 0.000000
1.000000 0.000000 0.000000
1.000000 0.000000 0.000000
0.000000 0.305248 0.000000
0.000000 0.304849 0.000000
0.000000 0.304450 0.000000
0.000000 0.304050 0.000000
0.000000 0.303650 0.000000
0.019199 0.303249 0.000000
0.048914 0.302747 0.000000
0.090561 0.302041 0.000000
0.135844 0.301104 0.000000
0.183011 0.299857 0.000000
0.233591 0.298198 0.000000
0.288793 0.295987 0.000000
0.349730 0.293033 0.000000
0.417519 0.289077 0.000000
0.493340 0.283757 0.000000
0.578475 0.276565 0.000000
0.674333 0.266768 0.000000
0.782487 0.253268 0.000000
0.904699 0.234341 0.000000
1.000000 0.207028 0.000000
1.000000 0.165427 0.000000
1.000000 0.093117 0.000000
1.000000 0.000000 0.000000
1.000000 0.000000 0.000000
1.000000 0.000000 0.000000
1.000000 0.000000 0.000000
1.000000 0.000000 0.000000
1.000000 0.000000 0.000000
1.000000 0.000000 0.000000
1.000000 0.000000 0.000000
1.000000 0.000000 0.000000
1.000000 0.000000 0.000000
1.000000 0.000000 0.000000
0.000000 0.364242 0.000000
0.000000 0.363904 0.000000
0.000000 0.363566 0.000000
0.000000 0.363228 0.000000
0.000000 0.362889 0.000000
0.008190 0.362551 0.000000
0.037904 0.362126 0.000000
0.079585 0.361530 0.000000
0.127693 0.360739 0.000000
0.176541 0.359688 0.000000
0.228326 0.358290 0.000000
0.284441 0.356431 0.000000
0.346095 0.353952 0.000000
0.414463 0.350641 0.000000
0.490758 0.346208 0.000000
0.576285 0.340249 0.000000
0.672471 0.332197 0.000000
0.780901 0.321236 0.000000
0.903346 0.306149 0.000000
1.000000 0.285030 0.000000
1.000000 0.254641 0.000000
1.000000 0.208620 0.000000
1.000000 0.129955 0.000000
1.000000 0.000000 0.000000
1.000000 0.000000 0.000000
1.000000 0.000000 0.000000
1.000000 0.000000 0.000000
1.000000 0.000000 0.000000
1.000000 0.000000 0.000000
1.000000 0.000000 0.000000
1.000000 0.000000 0.000000
1.000000 0.000000 0.000000
1.000000 0.000000 0.000000
0.000000 0.430533 0.000000
0.000000 0.430246 0.000000
0.000000 0.429959 0.000000
0.000000 0.429672 0.000000
0.000000 0.429385 0.000000
0.000000 0.429098 0.000000
0.023315 0.428738 0.000000
0.064996 0.428232 0.000000
0.116306 0.427562 0.000000
0.167671 0.426672 0.000000
0.221185 0.425489 0.000000
0.278579 0.423917 0.000000
0.341223 0.421826 0.000000
0.410379 0.419038 0.000000
0.487315 0.415315 0.000000
0.573369 0.410331 0.000000
0.669995 0.403633 0.000000
0.778793 0.394586 0.000000
0.901549 0.382276 0.000000
1.000000 0.365346 0.000000
1.000000 0.341675 0.000000
1.000000 0.307682 0.000000
1.000000 0.256410 0.000000
1.000000 0.169749 0.000000
1.000000 0.000000 0.000000
1.000000 0.000000 0.000000
1.000000 0.000000 0.000000
1.000000 0.000000 0.000000
1.000000 0.000000 0.000000
1.000000 0.000000 0.000000
1.000000 0.000000 0.000000
1.000000 0.000000 0.000000
1.000000 0.000000 0.000000
0.000000 0.505217 0.000000
0.000000 0.504973 0.000000
0.000000 0.504729 0.000000
0.000000 0.504485 0.000000
0.000000 0.504240 0.000000
0.000000 0.503996 0.000000
0.003982 0.503690 0.000000
0.045664 0.503260 0.000000
0.099974 0.502691 0.000000
0.155328 0.501935 0.000000
0.211411 0.500931 0.000000
0.270636 0.499598 0.000000
0.334664 0.497826 0.000000
0.404905 0.495468 0.000000
0.482714 0.492325 0.000000
0.569482 0.488129 0.000000
0.666699 0.482512 0.000000
0.775992 0.474964 0.000000
0.899163 0.464773 0.000000
1.000000 0.450910 0.000000
1.000000 0.431854 0.000000
1.000000 0.405236 0.000000
1.000000 0.367065 0.000000
1.000000 0.309658 0.000000
1.000000 0.213383 0.000000
1.000000 0.000000 0.000000
1.000000 0.000000 0.000000
1.000000 0.000000 0.000000
1.000000 0.000000 0.000000
1.000000 0.000000 0.000000
1.000000 0.000000 0.000000
1.000000 0.000000 0.000000
1.000000 0.000000 0.000000
0.000000 0.589516 0.000000
0.000000 0.589308 0.000000
0.000000 0.589100 0.000000
0.000000 0.588892 0.000000
0.000000 0.588684 0.000000
0.000000 0.588476 0.000000
0.000000 0.588215 0.000000
0.020046 0.587849 0.000000
0.075279 0.587364 0.000000
0.137748 0.586721 0.000000
0.197849 0.585867 0.000000
0.259778 0.584733 0.000000
0.325780 0.583228 0.000000
0.397537 0.581226 0.000000
0.476547 0.578563 0.000000
0.564288 0.575014 0.000000
0.662305 0.570276 0.000000
0.772262 0.563934 0.000000
0.895990 0.555414 0.000000
1.000000 0.543911 0.000000
1.000000 0.528268 0.000000
1.000000 0.506775 0.000000
1.000000 0.476770 0.000000
1.000000 0.433789 0.000000
1.000000 0.369282 0.000000
1.000000 0.261702 0.000000
1.000000 0.000000 0.000000
1.000000 0.000000 0.000000
1.000000 0.000000 0.000000
1.000000 0.000000 0.000000
1.000000 0.000000 0.000000
1.000000 0.000000 0.000000
1.000000 0.000000 0.000000
0.000000 0.684803 0.000000
0.000000 0.684625 0.000000
0.000000 0.684448 0.000000
0.000000 0.684270 0.000000
0.000000 0.684093 0.000000
0.000000 0.683915 0.000000
0.000000 0.683693 0.000000
0.000000 0.683380 0.000000
0.041333 0.682967 0.000000
0.111645 0.682418 0.000000
0.178617 0.681690 0.000000
0.244739 0.680725 0.000000
0.313647 0.679443 0.000000
0.387563 0.677740 0.000000
0.468249 0.675477 0.000000
0.557328 0.672466 0.000000
0.656434 0.668453 0.000000
0.767290 0.663096 0.000000
0.891766 0.655926 0.000000
1.000000 0.646294 0.000000
1.000000 0.633292 0.000000
1.000000 0.615615 0.000000
1.000000 0.591334 0.000000
1.000000 0.557452 0.000000
1.000000 0.508957 0.000000
1.000000 0.436284 0.000000
1.000000 0.315572 0.000000
1.000000 0.000000 0.000000
1.000000 0.000000 0.000000
1.000000 0.000000 0.000000
1.000000 0.000000 0.000000
1.000000 0.000000 0.000000
1.000000 0.000000 0.000000
0.000000 0.792620 0.000000
0.000000 0.792468 0.000000
0.000000 0.792317 0.000000
0.000000 0.792165 0.000000
0.000000 0.792014 0.000000
0.000000 0.791862 0.000000
0.000000 0.791672 0.000000
0.000000 0.791405 0.000000
0.000000 0.791052 0.000000
0.069540 0.790584 0.000000
0.150296 0.789963 0.000000
0.223475 0.789139 0.000000
0.296863 0.788046 0.000000
0.373949 0.786595 0.000000
0.457020 0.784668 0.000000
0.547964 0.782107 0.000000
0.648568 0.778699 0.000000
0.760647 0.774157 0.000000
0.886136 0.768094 0.000000
1.000000 0.759980 0.000000
1.000000 0.749081 0.000000
1.000000 0.734369 0.000000
1.000000 0.714371 0.000000
1.000000 0.686907 0.000000
1.000000 0.648598 0.000000
1.000000 0.593798 0.000000
1.000000 0.511770 0.000000
1.000000 0.375918 0.000000
1.000000 0.005198 0.000000
1.000000 0.000000 0.000000
1.000000 0.000000 0.000000
1.000000 0.000000 0.000000
1.000000 0.000000 0.000000
0.000000 0.914711 0.000000
0.000000 0.914582 0.000000
0.000000 0.914452 0.000000
0.000000 0.914323 0.000000
0.000000 0.914193 0.000000
0.000000 0.914063 0.000000
0.000000 0.913901 0.000000
0.000000 0.913673 0.000000
0.000000 0.913371 0.000000
0.009934 0.912971 0.000000
0.105232 0.912441 0.000000
0.192334 0.911738 0.000000
0.273183 0.910805 0.000000
0.355134 0.909567 0.000000
0.441698 0.907923 0.000000
0.535295 0.905741 0.000000
0.637985 0.902839 0.000000
0.751746 0.898979 0.000000
0.878613 0.893835 0.000000
1.000000 0.886969 0.000000
1.000000 0.877779 0.000000
1.000000 0.865436 0.000000
1.000000 0.848777 0.000000
1.000000 0.826135 0.000000
1.000000 0.795044 0.000000
1.000000 0.751688 0.000000
1.000000 0.689694 0.000000
1.000000 0.596976 0.000000
1.000000 0.443752 0.000000
1.000000 0.021038 0.000000
1.000000 0.000000 0.000000
1.000000 0.000000 0.000000
1.000000 0.000000 0.000000
0.000000 1.000000 0.000000
0.000000 1.000000 0.000000
0.000000 1.000000 0.000000
0.000000 1.000000 0.000000
0.000000 1.000000 0.000000
0.000000 1.000000 0.000000
0.000000 1.000000 0.000000
0.000000 1.000000 0.000000
0.000000 1.000000 0.000000
0.000000 1.000000 0.000000
0.027934 1.000000 0.000000
0.143391 1.000000 0.000000
0.238632 1.000000 0.000000
0.328628 1.000000 0.000000
0.420538 1.000000 0.000000
0.518014 1.000000 0.000000
0.623669 1.000000 0.000000
0.739773 1.000000 0.000000
0.868534 1.000000 0.000000
1.000000 1.000000 0.000000
1.000000 1.000000 0.000000
1.000000 1.000000 0.000000
1.000000 0.997240 0.000000
1.000000 0.978365 0.000000
1.000000 0.952712 0.000000
1.000000 0.917493 0.000000
1.000000 0.868389 0.000000
1.000000 0.798199 0.000000
1.000000 0.693288 0.000000
1.000000 0.520194 0.000000
1.000000 0.042028 0.000000
1.000000 0.000000 0.000000
1.000000 0.000000 0.000000
0.000000 1.000000 0.000000
0.000000 1.000000 0.000000
0.000000 1.000000 0.000000
0.000000 1.000000 0.000000
0.000000 1.000000 0.000000
0.000000 1.000000 0.000000
0.000000 1.000000 0.000000
0.000000 1.000000 0.000000
0.000000 1.000000 0.000000
0.000000 1.000000 0.000000
0.000000 1.000000 0.000000
0.051784 1.000000 0.000000
0.184779 1.000000 0.000000
0.290056 1.000000 0.000000
0.390760 1.000000 0.000000
0.494160 1.000000 0.000000
0.604147 1.000000 0.000000
0.723579 1.000000 0.000000
0.854978 1.000000 0.000000
1.000000 1.000000 0.000000
1.000000 1.000000 0.000000
1.000000 1.000000 0.000000
1.000000 1.000000 0.000000
1.000000 1.000000 0.000000
1.000000 1.000000 0.000000
1.000000 1.000000 0.000000
1.000000 1.000000 0.000000
1.000000 1.000000 0.000000
1.000000 0.921067 0.000000
1.000000 0.802267 0.000000
1.000000 0.606492 0.000000
1.000000 0.069842 0.000000
1.000000 0.000000 0.000000
0.000000 1.000000 0.000000
0.000000 1.000000 0.000000
0.000000 1.000000 0.000000
0.000000 1.000000 0.000000
0.000000 1.000000 0.000000
0.000000 1.000000 0.000000
0.000000 1.000000 0.000000
0.000000 1.000000 0.000000
0.000000 1.000000 0.000000
0.000000 1.000000 0.000000
0.000000 1.000000 0.000000
0.000000 1.000000 0.000000
0.083622 1.000000 0.000000
0.230279 1.000000 0.000000
0.347510 1.000000 0.000000
0.460618 1.000000 0.000000
0.577210 1.000000 0.000000
0.701499 1.000000 0.000000
0.836643 1.000000 0.000000
0.985459 1.000000 0.000000
1.000000 1.000000 0.000000
1.000000 1.000000 0.000000
1.000000 1.000000 0.000000
1.000000 1.000000 0.000000
1.000000 1.000000 0.000000
1.000000 1.000000 0.000000
1.000000 1.000000 0.000000
1.000000 1.000000 0.000000
1.000000 1.000000 0.000000
1.000000 1.000000 0.000000
1.000000 0.925675 0.000000
1.000000 0.704052 0.000000
1.000000 0.105044 0.000000
0.000000 1.000000 0.000000
0.000000 1.000000 0.000000
0.000000 1.000000 0.000000
0.000000 1.000000 0.000000
0.000000 1.000000 0.000000
0.000000 1.000000 0.000000
0.000000 1.000000 0.000000
0.000000 1.000000 0.000000
0.000000 1.000000 0.000000
0.000000 1.000000 0.000000
0.000000 1.000000 0.000000
0.000000 1.000000 0.000000
0.000000 1.000000 0.000000
0.120322 1.000000 0.000000
0.280753 1.000000 0.000000
0.411968 1.000000 0.000000
0.539354 1.000000 0.000000
0.671041 1.000000 0.000000
0.811648 1.000000 0.000000
0.964688 1.000000 0.000000
1.000000 1.000000 0.000000
1.000000 1.000000 0.000000
1.000000 1.000000 0.000000
1.000000 1.000000 0.000000
1.000000 1.000000 0.000000
1.000000 1.000000 0.000000
1.000000 1.000000 0.000000
1.000000 1.000000 0.000000
1.000000 1.000000 0.000000
1.000000 1.000000 0.000000
1.000000 1.000000 0.000000
1.000000 1.000000 0.000000
1.000000 0.814452 0.000000
0.000000 1.000000 0.000000
0.000000 1.000000 0.000000
0.000000 1.000000 0.000000
0.000000 1.000000 0.000000
0.000000 1.000000 0.000000
0.000000 1.000000 0.000000
0.000000 1.000000 0.000000
0.000000 1.000000 0.000000
0.000000 1.000000 0.000000
0.000000 1.000000 0.000000
0.000000 1.000000 0.000000
0.000000 1.000000 0.000000
0.000000 1.000000 0.000000
0.000000 1.000000 0.000000
0.159674 1.000000 0.000000
0.337096 1.000000 0.000000
0.484504 1.000000 0.000000
0.628256 1.000000 0.000000
0.777176 1.000000 0.000000
0.936374 1.000000 0.000000
1.000000 1.000000 0.000000
1.000000 1.000000 0.000000
1.000000 1.000000 0.000000
1.000000 1.000000 0.000000
1.000000 1.000000 0.000000
1.000000 1.000000 0.000000
1.000000 1.000000 0.000000
1.000000 1.000000 0.000000
1.000000 1.000000 0.000000
1.000000 1.000000 0.000000
1.000000 1.000000 0.000000
1.000000 1.000000 0.000000
1.000000 1.000000 0.000000
0.000000 1.000000 0.000000
0.000000 1.000000 0.000000
0.000000 1.000000 0.000000
0.000000 1.000000 0.000000
0.000000 1.000000 0.000000
0.000000 1.000000 0.000000
0.000000 1.000000 0.000000
0.000000 1.000000 0.000000
0.000000 1.000000 0.000000
0.000000 1.000000 0.000000
0.000000 1.000000 0.000000
0.000000 1.000000 0.000000
0.000000 1.000000 0.000000
0.000000 1.000000 0.000000
0.000000 1.000000 0.000000
0.202620 1.000000 0.000000
0.400268 1.000000 0.000000
0.566309 1.000000 0.000000
0.728767 1.000000 0.000000
0.897331 1.000000 0.000000
1.000000 1.000000 0.000000
1.000000 1.000000 0.000000
1.000000 1.000000 0.000000
1.000000 1.000000 0.000000
1.000000 1.000000 0.000000
1.000000 1.000000 0.000000
1.000000 1.000000 0.000000
1.000000 1.000000 0.000000
1.000000 1.000000 0.000000
1.000000 1.000000 0.000000
1.000000 1.000000 0.000000
1.000000 1.000000 0.000000
1.000000 1.000000 0.000000
0.000000 1.000000 0.000000
0.000000 1.000000 0.000000
0.000000 1.000000 0.000000
0.000000 1.000000 0.000000
0.000000 1.000000 0.000000
0.000000 1.000000 0.000000
0.000000 1.000000 0.000000
0.000000 1.000000 0.000000
0.000000 1.000000 0.000000
0.000000 1.000000 0.000000
0.000000 1.000000 0.000000
0.000000 1.000000 0.000000
0.000000 1.000000 0.000000
0.000000 1.000000 0.000000
0.000000 1.000000 0.000000
0.000000 1.000000 0.000000
0.250025 1.000000 0.000000
0.471325 1.000000 0.000000
0.658719 1.000000 0.000000
0.842517 1.000000 0.000000
1.000000 1.000000 0.000000
1.000000 1.000000 0.000000
1.000000 1.000000 0.000000
1.000000 1.000000 0.000000
1.000000 1.000000 0.000000
1.000000 1.000000 0.000000
1.000000 1.000000 0.000000
1.000000 1.000000 0.000000
1.000000 1.000000 0.000000
1.000000 1.000000 0.000000
1.000000 1.000000 0.000000
1.000000 1.000000 0.000000
1.000000 1.000000 0.000000
0.000000 1.000000 0.000000
0.000000 1.000000 0.000000
0.000000 1.000000 0.000000
0.000000 1.000000 0.000000
0.000000 1.000000 0.000000
0.000000 1.000000 0.000000
0.000000 1.000000 0.000000
0.000000 1.000000 0.000000
0.000000 1.000000 0.000000
0.000000 1.000000 0.000000
0.000000 1.000000 0.000000
0.000000 1.000000 0.000000
0.000000 1.000000 0.000000
0.000000 1.000000 0.000000
0.000000 1.000000 0.000000
0.000000 1.000000 0.000000
0.000000 1.000000 0.000000
0.302759 1.000000 0.000000
0.551435 1.000000 0.000000
0.763232 1.000000 0.000000
0.971342 1.000000 0.000000
1.000000 1.000000 0.000000
1.000000 1.000000 0.000000
1.000000 1.000000 0.000000
1.000000 1.000000 0.000000
1.000000 1.000000 0.000000
