agents/video/luts/SLog3_SGamut3Cine_to_Rec709.cube
# Sony S-Log3 / S-Gamut3 to Rec.709 (warm bias)
LUT_3D_SIZE 9
DOMAIN_MIN 0.0 0.0 0.0
DOMAIN_MAX 1.0 1.0 1.0
0.000000 0.000000 0.000000
0.030625 0.000000 0.000000
0.159827 0.000000 0.000000
0.361106 0.000000 0.000000
0.680245 0.000000 0.000000
1.000000 0.000000 0.000000
1.000000 0.000000 0.000000
1.000000 0.000000 0.000000
1.000000 0.000000 0.000000
0.000000 0.033034 0.000000
0.024484 0.028761 0.000000
0.155837 0.021997 0.000000
0.359144 0.000903 0.000000
0.679216 0.000000 0.000000
1.000000 0.000000 0.000000
1.000000 0.000000 0.000000
1.000000 0.000000 0.000000
1.000000 0.000000 0.000000
0.000000 0.162528 0.000000
0.014761 0.159796 0.000000
0.149361 0.155397 0.000000
0.356018 0.141041 0.000000
0.677585 0.088152 0.000000
1.000000 0.000000 0.000000
1.000000 0.000000 0.000000
1.000000 0.000000 0.000000
1.000000 0.000000 0.000000
0.000000 0.364242 0.000000
0.000000 0.362889 0.000000
0.127693 0.360739 0.000000
0.346095 0.353952 0.000000
0.672471 0.332197 0.000000
1.000000 0.254641 0.000000
1.000000 0.000000 0.000000
1.000000 0.000000 0.000000
1.000000 0.000000 0.000000
0.000000 0.684803 0.000000
0.000000 0.684093 0.000000
0.041333 0.682967 0.000000
0.313647 0.679443 0.000000
0.656434 0.668453 0.000000
1.000000 0.633292 0.000000
1.000000 0.508957 0.000000
1.000000 0.000000 0.000000
1.000000 0.000000 0.000000
0.000000 1.000000 0.000000
0.000000 1.000000 0.000000
0.000000 1.000000 0.000000
0.184779 1.000000 0.000000
0.604147 1.000000 0.000000
1.000000 1.000000 0.000000
1.000000 1.000000 0.000000
1.000000 0.921067 0.000000
1.000000 0.000000 0.000000
0.000000 1.000000 0.000000
0.000000 1.000000 0.000000
0.000000 1.000000 0.000000
0.000000 1.000000 0.000000
0.400268 1.000000 0.000000
1.000000 1.000000 0.000000
1.000000 1.000000 0.000000
1.000000 1.000000 0.000000
1.000000 1.000000 0.000000
0.000000 1.000000 0.000000
0.000000 1.000000 0.000000
0.000000 1.000000 0.000000
0.000000 1.000000 0.000000
0.000000 1.000000 0.000000
0.744210 1.000000 0.000000
1.000000 1.000000 0.000000
1.000000 1.000000 0.000000
1.000000 1.000000 0.000000
0.000000 1.000000 0.000000
0.000000 1.000000 0.000000
0.000000 1.000000 0.000000
0.000000 1.000000 0.000000
0.000000 1.000000 0.000000
0.000000 1.000000 0.000000
1.000000 1.000000 0.000000
1.000000 1.000000 0.000000
1.000000 1.000000 0.000000
0.000000 0.000000 0.026568
0.028416 0.000000 0.023808
0.158401 0.000000 0.019437
0.360401 0.000000 0.005808
0.679875 0.000000 0.000000
1.000000 0.000000 0.000000
1.000000 0.000000 0.000000
1.000000 0.000000 0.000000
1.000000 0.000000 0.000000
0.000000 0.026111 0.024164
0.022275 0.021838 0.021404
0.154384 0.015074 0.017033
0.358436 0.000000 0.003404
0.678846 0.000000 0.000000
1.000000 0.000000 0.000000
1.000000 0.000000 0.000000
1.000000 0.000000 0.000000
1.000000 0.000000 0.000000
0.000000 0.158083 0.020359
0.012553 0.155292 0.017598
0.147861 0.150796 0.013228
0.355304 0.136094 0.000000
0.677214 0.081382 0.000000
1.000000 0.000000 0.000000
1.000000 0.000000 0.000000
1.000000 0.000000 0.000000
1.000000 0.000000 0.000000
0.000000 0.362048 0.008491
0.000000 0.360688 0.005730
0.126014 0.358525 0.001360
0.345362 0.351697 0.000000
0.672096 0.329802 0.000000
1.000000 0.251583 0.000000
1.000000 0.000000 0.000000
1.000000 0.000000 0.000000
1.000000 0.000000 0.000000
0.000000 0.683652 0.000000
0.000000 0.682940 0.000000
0.039124 0.681812 0.000000
0.312842 0.678282 0.000000
0.656050 0.667272 0.000000
1.000000 0.632041 0.000000
1.000000 0.507386 0.000000
1.000000 0.000000 0.000000
1.000000 0.000000 0.000000
0.000000 1.000000 0.000000
0.000000 1.000000 0.000000
0.000000 1.000000 0.000000
0.183505 1.000000 0.000000
0.603728 1.000000 0.000000
1.000000 1.000000 0.000000
1.000000 1.000000 0.000000
1.000000 0.920233 0.000000
1.000000 0.000000 0.000000
0.000000 1.000000 0.000000
0.000000 1.000000 0.000000
0.000000 1.000000 0.000000
0.000000 1.000000 0.000000
0.399631 1.000000 0.000000
1.000000 1.000000 0.000000
1.000000 1.000000 0.000000
1.000000 1.000000 0.000000
1.000000 1.000000 0.000000
0.000000 1.000000 0.000000
0.000000 1.000000 0.000000
0.000000 1.000000 0.000000
0.000000 1.000000 0.000000
0.000000 1.000000 0.000000
0.743875 1.000000 0.000000
1.000000 1.000000 0.000000
1.000000 1.000000 0.000000
1.000000 1.000000 0.000000
0.000000 1.000000 0.000000
0.000000 1.000000 0.000000
0.000000 1.000000 0.000000
0.000000 1.000000 0.000000
0.000000 1.000000 0.000000
0.000000 1.000000 0.000000
1.000000 1.000000 0.000000
1.000000 1.000000 0.000000
1.000000 1.000000 0.000000
0.000000 0.000000 0.150305
0.024920 0.000000 0.148437
0.156123 0.000000 0.145444
0.359284 0.000000 0.135807
0.679290 0.000000 0.102490
1.000000 0.000000 0.000000
1.000000 0.000000 0.000000
1.000000 0.000000 0.000000
1.000000 0.000000 0.000000
0.000000 0.015152 0.148680
0.018779 0.010879 0.146796
0.152062 0.004115 0.143778
0.357313 0.000000 0.134057
0.678260 0.000000 0.100376
1.000000 0.000000 0.000000
1.000000 0.000000 0.000000
1.000000 0.000000 0.000000
1.000000 0.000000 0.000000
0.000000 0.150848 0.146079
0.009057 0.147957 0.144171
0.145463 0.143294 0.141112
0.354171 0.127992 0.131253
0.676626 0.070174 0.096971
1.000000 0.000000 0.000000
1.000000 0.000000 0.000000
1.000000 0.000000 0.000000
1.000000 0.000000 0.000000
0.000000 0.358550 0.137742
0.000000 0.357177 0.135751
0.123325 0.354993 0.132556
0.344198 0.348099 0.122226
0.671504 0.325976 0.085858
1.000000 0.246674 0.000000
1.000000 0.000000 0.000000
1.000000 0.000000 0.000000
1.000000 0.000000 0.000000
0.000000 0.681825 0.109434
0.000000 0.681112 0.107103
0.035628 0.679981 0.103347
0.311565 0.676440 0.091042
0.655442 0.665398 0.049084
1.000000 0.630056 0.000000
1.000000 0.504888 0.000000
1.000000 0.000000 0.000000
1.000000 0.000000 0.000000
0.000000 1.000000 0.000000
0.000000 1.000000 0.000000
0.000000 1.000000 0.000000
0.181475 1.000000 0.000000
0.603064 1.000000 0.000000
1.000000 1.000000 0.000000
1.000000 1.000000 0.000000
1.000000 0.918911 0.000000
1.000000 0.000000 0.000000
0.000000 1.000000 0.000000
0.000000 1.000000 0.000000
0.000000 1.000000 0.000000
0.000000 1.000000 0.000000
0.398620 1.000000 0.000000
1.000000 1.000000 0.000000
1.000000 1.000000 0.000000
1.000000 1.000000 0.000000
1.000000 1.000000 0.000000
0.000000 1.000000 0.000000
0.000000 1.000000 0.000000
0.000000 1.000000 0.000000
0.000000 1.000000 0.000000
0.000000 1.000000 0.000000
0.743343 1.000000 0.000000
1.000000 1.000000 0.000000
1.000000 1.000000 0.000000
1.000000 1.000000 0.000000
0.000000 1.000000 0.000000
0.000000 1.000000 0.000000
0.000000 1.000000 0.000000
0.000000 1.000000 0.000000
0.000000 1.000000 0.000000
0.000000 1.000000 0.000000
1.000000 1.000000 0.000000
1.000000 1.000000 0.000000
1.000000 1.000000 0.000000
0.000000 0.000000 0.345850
0.014017 0.000000 0.344932
0.148856 0.000000 0.343475
0.355777 0.000000 0.338892
0.677460 0.000000 0.324378
1.000000 0.000000 0.275233
1.000000 0.000000 0.011227
1.000000 0.000000 0.000000
1.000000 0.000000 0.000000
0.000000 0.000000 0.345051
0.007875 0.000000 0.344132
0.144646 0.000000 0.342671
0.353788 0.000000 0.338078
0.676427 0.000000 0.323530
1.000000 0.000000 0.274246
1.000000 0.000000 0.008823
1.000000 0.000000 0.000000
1.000000 0.000000 0.000000
0.000000 0.126438 0.343783
0.000000 0.123154 0.342860
0.137793 0.117830 0.341394
0.350616 0.100096 0.336785
0.674789 0.035996 0.322182
1.000000 0.000000 0.272676
1.000000 0.000000 0.005018
1.000000 0.000000 0.000000
1.000000 0.000000 0.000000
0.000000 0.347423 0.339799
0.000000 0.346008 0.338866
0.114671 0.343757 0.337384
0.340544 0.336644 0.332722
0.669651 0.313765 0.317944
1.000000 0.230787 0.267729
1.000000 0.000000 0.000000
1.000000 0.000000 0.000000
1.000000 0.000000 0.000000
0.000000 0.676096 0.327228
0.000000 0.675376 0.326261
0.024725 0.674234 0.324725
0.307548 0.670662 0.319889
0.653541 0.659516 0.304533
1.000000 0.623820 0.251934
1.000000 0.497017 0.000000
1.000000 0.000000 0.000000
1.000000 0.000000 0.000000
0.000000 1.000000 0.285261
0.000000 1.000000 0.284163
0.000000 1.000000 0.282417
0.175024 1.000000 0.276908
0.600988 1.000000 0.259267
1.000000 1.000000 0.196630
1.000000 1.000000 0.000000
1.000000 0.914776 0.000000
1.000000 0.000000 0.000000
0.000000 1.000000 0.087820
0.000000 1.000000 0.085151
0.000000 1.000000 0.080579
0.000000 1.000000 0.066950
0.395452 1.000000 0.024927
1.000000 1.000000 0.000000
1.000000 1.000000 0.000000
1.000000 1.000000 0.000000
1.000000 1.000000 0.000000
0.000000 1.000000 0.000000
0.000000 1.000000 0.000000
0.000000 1.000000 0.000000
0.000000 1.000000 0.000000
0.000000 1.000000 0.000000
0.741682 1.000000 0.000000
1.000000 1.000000 0.000000
1.000000 1.000000 0.000000
1.000000 1.000000 0.000000
0.000000 1.000000 0.000000
0.000000 1.000000 0.000000
0.000000 1.000000 0.000000
0.000000 1.000000 0.000000
0.000000 1.000000 0.000000
0.000000 1.000000 0.000000
1.000000 1.000000 0.000000
1.000000 1.000000 0.000000
1.000000 1.000000 0.000000
0.000000 0.000000 0.655158
0.000000 0.000000 0.654677
0.124608 0.000000 0.653915
0.344752 0.000000 0.651533
0.671786 0.000000 0.644127
1.000000 0.000000 0.620706
1.000000 0.000000 0.541812
1.000000 0.000000 0.120447
1.000000 0.000000 0.000000
0.000000 0.000000 0.654740
0.000000 0.000000 0.654258
0.119820 0.000000 0.653496
0.342701 0.000000 0.651111
0.670743 0.000000 0.643701
1.000000 0.000000 0.620263
1.000000 0.000000 0.541301
1.000000 0.000000 0.118545
1.000000 0.000000 0.000000
0.000000 0.027785 0.654076
0.000000 0.023512 0.653594
0.111967 0.016748 0.652831
0.339431 0.000000 0.650444
0.669090 0.000000 0.643025
1.000000 0.000000 0.619560
1.000000 0.000000 0.540491
1.000000 0.000000 0.115490
1.000000 0.000000 0.000000
0.000000 0.310765 0.652002
0.000000 0.309193 0.651519
0.084801 0.306690 0.650753
0.329036 0.298758 0.648358
0.663906 0.272990 0.640914
1.000000 0.174579 0.617363
1.000000 0.000000 0.537956
1.000000 0.000000 0.105604
1.000000 0.000000 0.000000
0.000000 0.658095 0.645564
0.000000 0.657354 0.645076
0.000000 0.656179 0.644302
0.294849 0.652501 0.641881
0.647644 0.641020 0.634356
1.000000 0.604167 0.610539
1.000000 0.471907 0.530064
1.000000 0.000000 0.070759
1.000000 0.000000 0.000000
0.000000 1.000000 0.625271
0.000000 1.000000 0.624766
0.000000 1.000000 0.623965
0.153855 1.000000 0.621461
0.594540 1.000000 0.613672
1.000000 1.000000 0.588973
1.000000 1.000000 0.504931
1.000000 0.901894 0.000000
1.000000 0.000000 0.000000
0.000000 1.000000 0.557818
0.000000 1.000000 0.557249
0.000000 1.000000 0.556346
0.000000 1.000000 0.553521
0.385524 1.000000 0.544715
1.000000 1.000000 0.516587
1.000000 1.000000 0.417880
1.000000 1.000000 0.000000
1.000000 1.000000 0.000000
0.000000 1.000000 0.254163
0.000000 1.000000 0.252946
0.000000 1.000000 0.251008
0.000000 1.000000 0.244877
0.000000 1.000000 0.225076
0.736537 1.000000 0.151780
1.000000 1.000000 0.000000
1.000000 1.000000 0.000000
1.000000 1.000000 0.000000
0.000000 1.000000 0.000000
0.000000 1.000000 0.000000
0.000000 1.000000 0.000000
0.000000 1.000000 0.000000
0.000000 1.000000 0.000000
0.000000 1.000000 0.000000
1.000000 1.000000 0.000000
1.000000 1.000000 0.000000
1.000000 1.000000 0.000000
0.000000 0.000000 1.000000
0.000000 0.000000 1.000000
0.027122 0.000000 1.000000
0.308436 0.000000 1.000000
0.653960 0.000000 1.000000
1.000000 0.000000 1.000000
1.000000 0.000000 1.000000
1.000000 0.000000 0.974938
1.000000 0.000000 0.301502
0.000000 0.000000 1.000000
0.000000 0.000000 1.000000
0.020981 0.000000 1.000000
0.306158 0.000000 1.000000
0.652887 0.000000 1.000000
1.000000 0.000000 1.000000
1.000000 0.000000 1.000000
1.000000 0.000000 0.974666
1.000000 0.000000 0.300594
0.000000 0.000000 1.000000
0.000000 0.000000 1.000000
0.011259 0.000000 1.000000
0.302521 0.000000 1.000000
0.651186 0.000000 1.000000
1.000000 0.000000 1.000000
1.000000 0.000000 1.000000
1.000000 0.000000 0.974235
1.000000 0.000000 0.299150
0.000000 0.157571 1.000000
0.000000 0.154773 1.000000
0.000000 0.150266 1.000000
0.290908 0.135523 1.000000
0.645849 0.080346 1.000000
1.000000 0.000000 1.000000
1.000000 0.000000 1.000000
1.000000 0.000000 0.972892
1.000000 0.000000 0.294607
0.000000 0.598982 1.000000
0.000000 0.598163 1.000000
0.000000 0.596865 1.000000
0.252109 0.592798 1.000000
0.629091 0.580070 1.000000
1.000000 0.538855 1.000000
1.000000 0.384277 1.000000
1.000000 0.000000 0.968736
1.000000 0.000000 0.280178
0.000000 1.000000 1.000000
0.000000 1.000000 1.000000
0.000000 1.000000 1.000000
0.068199 1.000000 1.000000
0.574180 1.000000 1.000000
1.000000 1.000000 1.000000
1.000000 1.000000 1.000000
1.000000 0.860837 0.955796
1.000000 0.000000 0.230756
0.000000 1.000000 1.000000
0.000000 1.000000 1.000000
0.000000 1.000000 1.000000
0.000000 1.000000 1.000000
0.353218 1.000000 1.000000
1.000000 1.000000 1.000000
1.000000 1.000000 1.000000
1.000000 1.000000 0.914620
1.000000 1.000000 0.000000
0.000000 1.000000 1.000000
0.000000 1.000000 1.000000
0.000000 1.000000 1.000000
0.000000 1.000000 0.998903
0.000000 1.000000 0.994267
0.720423 1.000000 0.979820
1.000000 1.000000 0.933710
1.000000 1.000000 0.772448
1.000000 1.000000 0.000000
0.000000 1.000000 0.508193
0.000000 1.000000 0.507566
0.000000 1.000000 0.506572
0.000000 1.000000 0.503459
0.000000 1.000000 0.493735
0.000000 1.000000 0.462445
1.000000 1.000000 0.348848
1.000000 1.000000 0.000000
1.000000 1.000000 0.000000
0.000000 0.000000 1.000000
0.000000 0.000000 1.000000
0.000000 0.000000 1.000000
0.156921 0.000000 1.000000
0.595439 0.000000 1.000000
1.000000 0.000000 1.000000
1.000000 0.000000 1.000000
1.000000 0.000000 1.000000
1.000000 0.000000 1.000000
0.000000 0.000000 1.000000
0.000000 0.000000 1.000000
0.000000 0.000000 1.000000
0.152875 0.000000 1.000000
0.594255 0.000000 1.000000
1.000000 0.000000 1.000000
1.000000 0.000000 1.000000
1.000000 0.000000 1.000000
1.000000 0.000000 1.000000
0.000000 0.000000 1.000000
0.000000 0.000000 1.000000
0.000000 0.000000 1.000000
0.146303 0.000000 1.000000
0.592375 0.000000 1.000000
1.000000 0.000000 1.000000
1.000000 0.000000 1.000000
1.000000 0.000000 1.000000
1.000000 0.000000 1.000000
0.000000 0.000000 1.000000
0.000000 0.000000 1.000000
0.000000 0.000000 1.000000
0.124268 0.000000 1.000000
0.586473 0.000000 1.000000
1.000000 0.000000 1.000000
1.000000 0.000000 1.000000
1.000000 0.000000 1.000000
1.000000 0.000000 1.000000
0.000000 0.357645 1.000000
0.000000 0.356268 1.000000
0.000000 0.354079 1.000000
0.036849 0.347168 1.000000
0.567871 0.324985 1.000000
1.000000 0.245398 1.000000
1.000000 0.000000 1.000000
1.000000 0.000000 1.000000
1.000000 0.000000 1.000000
0.000000 1.000000 1.000000
0.000000 1.000000 1.000000
0.000000 1.000000 1.000000
0.000000 1.000000 1.000000
0.506062 1.000000 1.000000
1.000000 1.000000 1.000000
1.000000 0.970422 1.000000
1.000000 0.718105 1.000000
1.000000 0.000000 1.000000
0.000000 1.000000 1.000000
0.000000 1.000000 1.000000
0.000000 1.000000 1.000000
0.000000 1.000000 1.000000
0.228762 1.000000 1.000000
1.000000 1.000000 1.000000
1.000000 1.000000 1.000000
1.000000 1.000000 1.000000
1.000000 1.000000 1.000000
0.000000 1.000000 1.000000
0.000000 1.000000 1.000000
0.000000 1.000000 1.000000
0.000000 1.000000 1.000000
0.000000 1.000000 1.000000
0.668111 1.000000 1.000000
1.000000 1.000000 1.000000
1.000000 1.000000 1.000000
1.000000 1.000000 1.000000
0.000000 1.000000 1.000000
0.000000 1.000000 1.000000
0.000000 1.000000 1.000000
0.000000 1.000000 1.000000
0.000000 1.000000 1.000000
0.000000 1.000000 1.000000
1.000000 1.000000 1.000000
1.000000 1.000000 1.000000
1.000000 1.000000 1.000000
0.000000 0.000000 1.000000
0.000000 0.000000 1.000000
0.000000 0.000000 1.000000
0.000000 0.000000 1.000000
0.356991 0.000000 1.000000
1.000000 0.000000 1.000000
1.000000 0.000000 1.000000
1.000000 0.000000 1.000000
1.000000 0.000000 1.000000
0.000000 0.000000 1.000000
0.000000 0.000000 1.000000
0.000000 0.000000 1.000000
0.000000 0.000000 1.000000
0.355008 0.000000 1.000000
1.000000 0.000000 1.000000
1.000000 0.000000 1.000000
1.000000 0.000000 1.000000
1.000000 0.000000 1.000000
0.000000 0.000000 1.000000
0.000000 0.000000 1.000000
0.000000 0.000000 1.000000
0.000000 0.000000 1.000000
0.351847 0.000000 1.000000
1.000000 0.000000 1.000000
1.000000 0.000000 1.000000
1.000000 0.000000 1.000000
1.000000 0.000000 1.000000
0.000000 0.000000 1.000000
0.000000 0.000000 1.000000
0.000000 0.000000 1.000000
0.000000 0.000000 1.000000
0.341809 0.000000 1.000000
1.000000 0.000000 1.000000
1.000000 0.000000 1.000000
1.000000 0.000000 1.000000
1.000000 0.000000 1.000000
0.000000 0.000000 1.000000
0.000000 0.000000 1.000000
0.000000 0.000000 1.000000
0.000000 0.000000 1.000000
0.308940 0.000000 1.000000
1.000000 0.000000 1.000000
1.000000 0.000000 1.000000
1.000000 0.000000 1.000000
1.000000 0.000000 1.000000
0.000000 0.674630 1.000000
0.000000 0.673909 1.000000
0.000000 0.672765 1.000000
0.000000 0.669184 1.000000
0.177271 0.658012 1.000000
1.000000 0.622224 1.000000
1.000000 0.494995 1.000000
1.000000 0.000000 1.000000
1.000000 0.000000 1.000000
0.000000 1.000000 1.000000
0.000000 1.000000 1.000000
0.000000 1.000000 1.000000
0.000000 1.000000 1.000000
0.000000 1.000000 1.000000
0.916925 1.000000 1.000000
1.000000 1.000000 1.000000
1.000000 1.000000 1.000000
1.000000 1.000000 1.000000
0.000000 1.000000 1.000000
0.000000 1.000000 1.000000
0.000000 1.000000 1.000000
0.000000 1.000000 1.000000
0.000000 1.000000 1.000000
0.469178 1.000000 1.000000
1.000000 1.000000 1.000000
1.000000 1.000000 1.000000
1.000000 1.000000 1.000000
0.000000 1.000000 1.000000
0.000000 1.000000 1.000000
0.000000 1.000000 1.000000
0.000000 1.000000 1.000000
0.000000 1.000000 1.000000
0.000000 1.000000 1.000000
1.000000 1.000000 1.000000
1.000000 1.000000 1.000000
1.000000 1.000000 1.000000
0.000000 0.000000 1.000000
0.000000 0.000000 1.000000
0.000000 0.000000 1.000000
0.000000 0.000000 1.000000
0.000000 0.000000 1.000000
0.673749 0.000000 1.000000
1.000000 0.000000 1.000000
1.000000 0.000000 1.000000
1.000000 0.000000 1.000000
0.000000 0.000000 1.000000
0.000000 0.000000 1.000000
0.000000 0.000000 1.000000
0.000000 0.000000 1.000000
0.000000 0.000000 1.000000
0.672710 0.000000 1.000000
1.000000 0.000000 1.000000
1.000000 0.000000 1.000000
1.000000 0.000000 1.000000
0.000000 0.000000 1.000000
0.000000 0.000000 1.000000
0.000000 0.000000 1.000000
0.000000 0.000000 1.000000
0.000000 0.000000 1.000000
0.671062 0.000000 1.000000
1.000000 0.000000 1.000000
1.000000 0.000000 1.000000
1.000000 0.000000 1.000000
0.000000 0.000000 1.000000
0.000000 0.000000 1.000000
0.000000 0.000000 1.000000
0.000000 0.000000 1.000000
0.000000 0.000000 1.000000
0.665894 0.000000 1.000000
1.000000 0.000000 1.000000
1.000000 0.000000 1.000000
1.000000 0.000000 1.000000
0.000000 0.000000 1.000000
0.000000 0.000000 1.000000
0.000000 0.000000 1.000000
0.000000 0.000000 1.000000
0.000000 0.000000 1.000000
0.649685 0.000000 1.000000
1.000000 0.000000 1.000000
1.000000 0.000000 1.000000
1.000000 0.000000 1.000000
0.000000 0.000000 1.000000
0.000000 0.000000 1.000000
0.000000 0.000000 1.000000
0.000000 0.000000 1.000000
0.000000 0.000000 1.000000
0.596773 0.000000 1.000000
1.000000 0.000000 1.000000
1.000000 0.000000 1.000000
1.000000 0.000000 1.000000
0.000000 1.000000 1.000000
0.000000 1.000000 1.000000
0.000000 1.000000 1.000000
0.000000 1.000000 1.000000
0.000000 1.000000 1.000000
0.388977 1.000000 1.000000
1.000000 1.000000 1.000000
1.000000 0.898586 1.000000
1.000000 0.000000 1.000000
0.000000 1.000000 1.000000
0.000000 1.000000 1.000000
0.000000 1.000000 1.000000
0.000000 1.000000 1.000000
0.000000 1.000000 1.000000
0.000000 1.000000 1.000000
1.000000 1.000000 1.000000
1.000000 1.000000 1.000000
1.000000 1.000000 1.000000
0.000000 1.000000 1.000000
0.000000 1.000000 1.000000
0.000000 1.000000 1.000000
0.000000 1.000000 1.000000
0.000000 1.000000 1.000000
0.000000 1.000000 1.000000
0.856622 1.000000 1.000000
1.000000 1.000000 1.000000
1.000000 1.000000 1.000000
