agents/photo/output/presets/Mira_Cinematic_Warmth.xmp
<x:xmpmeta xmlns:x="adobe:ns:meta/" x:xmptk="Mira Photo Agent">
 <rdf:RDF xmlns:rdf="http://www.w3.org/1999/02/22-rdf-syntax-ns#">
  <rdf:Description rdf:about=""
    xmlns:crs="http://ns.adobe.com/camera-raw-settings/1.0/"
    crs:PresetType="Normal"
    crs:Cluster=""
    crs:UUID=""
    crs:SupportsAmount="False"
    crs:SupportsColor="True"
    crs:SupportsMonochrome="True"
    crs:SupportsHighDynamicRange="True"
    crs:SupportsNormalDynamicRange="True"
    crs:SupportsSceneReferred="True"
    crs:SupportsOutputReferred="True"
    crs:CameraModelRestriction=""
    crs:Copyright="Generated by Mira Photo Agent"
    crs:ContactInfo=""
    crs:Version="15.0"
    crs:ProcessVersion="11.0"
    crs:WhiteBalance="Custom"
    crs:Temperature="5400"
    crs:Tint="+12"
    crs:Exposure2012="0.00"
    crs:Contrast2012="+10"
    crs:Highlights2012="-80"
    crs:Shadows2012="+30"
    crs:Whites2012="+55"
    crs:Blacks2012="0"
    crs:Texture="0"
    crs:Clarity2012="+25"
    crs:Dehaze="+18"
    crs:Vibrance="+25"
    crs:Saturation="+10"
    crs:ParametricShadows="-18"
    crs:ParametricDarks="20"
    crs:ParametricLights="-13"
    crs:ParametricHighlights="-40"
    crs:ParametricShadowSplit="25"
    crs:ParametricMidtoneSplit="50"
    crs:ParametricHighlightSplit="75"
    crs:Sharpness="78"
    crs:SharpenRadius="0.8"
    crs:SharpenDetail="33"
    crs:SharpenEdgeMasking="30"
    crs:LuminanceSmoothing="0"
    crs:ColorNoiseReduction="25"
    crs:ColorNoiseReductionDetail="50"
    crs:ColorNoiseReductionSmoothness="50"
    crs:HueAdjustmentRed="0"
    crs:HueAdjustmentOrange="-22"
    crs:HueAdjustmentYellow="-30"
    crs:HueAdjustmentGreen="-14"
    crs:HueAdjustmentAqua="0"
    crs:HueAdjustmentBlue="0"
    crs:HueAdjustmentPurple="-100"
    crs:HueAdjustmentMagenta="0"
    crs:SaturationAdjustmentRed="-73"
    crs:SaturationAdjustmentOrange="43"
    crs:SaturationAdjustmentYellow="41"
    crs:SaturationAdjustmentGreen="37"
    crs:SaturationAdjustmentAqua="13"
    crs:SaturationAdjustmentBlue="-7"
    crs:SaturationAdjustmentPurple="-100"
    crs:SaturationAdjustmentMagenta="-62"
    crs:LuminanceAdjustmentRed="-100"
    crs:LuminanceAdjustmentOrange="56"
    crs:LuminanceAdjustmentYellow="36"
    crs:LuminanceAdjustmentGreen="0"
    crs:LuminanceAdjustmentAqua="0"
    crs:LuminanceAdjustmentBlue="-48"
    crs:LuminanceAdjustmentPurple="-15"
    crs:LuminanceAdjustmentMagenta="-37"
    crs:SplitToningShadowHue="44"
    crs:SplitToningShadowSaturation="1"
    crs:SplitToningHighlightHue="31"
    crs:SplitToningHighlightSaturation="14"
    crs:SplitToningBalance="0"
    crs:PostCropVignetteAmount="0"
    crs:GrainAmount="0"
    crs:AutoLateralCA="1"
    crs:ConvertToGrayscale="False"
    crs:ToneCurveName2012="Linear"
    crs:CameraProfile="Adobe Standard"
    crs:HasSettings="True">
   <crs:Name>
    <rdf:Alt>
     <rdf:li xml:lang="x-default">Mira - cinematic warmth with edge</rdf:li>
    </rdf:Alt>
   </crs:Name>
   <crs:Group>
    <rdf:Alt>
     <rdf:li xml:lang="x-default">Mira Styles</rdf:li>
    </rdf:Alt>
   </crs:Group>
   <crs:ToneCurvePV2012>
    <rdf:Seq>
     <rdf:li>0, 0</rdf:li>
     <rdf:li>255, 255</rdf:li>
    </rdf:Seq>
   </crs:ToneCurvePV2012>
   <crs:ToneCurvePV2012Red>
    <rdf:Seq>
     <rdf:li>0, 0</rdf:li>
     <rdf:li>255, 255</rdf:li>
    </rdf:Seq>
   </crs:ToneCurvePV2012Red>
   <crs:ToneCurvePV2012Green>
    <rdf:Seq>
     <rdf:li>0, 0</rdf:li>
     <rdf:li>255, 255</rdf:li>
    </rdf:Seq>
   </crs:ToneCurvePV2012Green>
   <crs:ToneCurvePV2012Blue>
    <rdf:Seq>
     <rdf:li>0, 0</rdf:li>
     <rdf:li>255, 255</rdf:li>
    </rdf:Seq>
   </crs:ToneCurvePV2012Blue>
  </rdf:Description>
 </rdf:RDF>
</x:xmpmeta>